;FLAVOR:Marlin
;TIME:7366
;Filament used: 4.83602m
;Layer height: 0.2
;MINX:14.117
;MINY:27.671
;MINZ:0.2
;MAXX:138.5
;MAXY:101.14
;MAXZ:25
;TARGET_MACHINE.NAME:BIQU B1
;Generated with Cura_SteamEngine 5.8.1
M82 ;absolute extrusion mode
                                 ; BIQU B1 Start G-code
M117 Getting the bed up to temp!
M140 S60      ; Set Heat Bed temperature
M190 S60      ; Wait for Heat Bed temperature
M117 Getting the extruder up to temp!
M104 S180    ; Set Extruder temperature
G92 E0                           ; Reset Extruder
M117 Homing axes
G28                              ; Home all axes
M109 S180    ; Wait for Extruder temperature
G1 Z2.0 F3000                    ; Move Z Axis up little to prevent scratching of Heat Bed
G1 X4.1 Y20 Z0.3 F5000.0         ; Move to start position
M117 Purging
G1 X4.1 Y200.0 Z0.3 F1500.0 E15  ; Draw the first line
G1 X4.4 Y200.0 Z0.3 F5000.0      ; Move to side a little
G1 X4.4 Y20 Z0.3 F1500.0 E30     ; Draw the second line
G92 E0                           ; Reset Extruder
M117 Lets make
G1 Z2.0 F3000                    ; Move Z Axis up little to prevent scratching of Heat Bed
G1 X5 Y20 Z0.3 F5000.0           ; Move over to prevent blob squish
G92 E0
G92 E0
G1 F4200 E-7
;LAYER_COUNT:125
;LAYER:0
M107
G0 F6000 X29.43 Y31.642 Z0.2
;TYPE:SKIRT
G1 F4200 E0
G1 F1200 X29.888 Y31.257 E0.0199
G1 X30.438 Y30.821 E0.04324
G1 X31.024 Y30.379 E0.06766
G1 X31.832 Y29.838 E0.1
G1 X32.672 Y29.374 E0.13192
G1 X33.151 Y29.151 E0.14949
G1 X33.813 Y28.864 E0.17349
G1 X34.482 Y28.592 E0.19751
G1 X35.403 Y28.276 E0.22989
G1 X36.333 Y28.045 E0.26177
G1 X36.882 Y27.948 E0.28031
G1 X37.875 Y27.805 E0.31368
G1 X38.327 Y27.752 E0.32881
G1 X39.184 Y27.688 E0.3574
G1 X39.795 Y27.673 E0.37772
G1 X100.872 Y27.671 E2.40915
G1 X101.753 Y27.684 E2.43846
G1 X102.732 Y27.744 E2.47108
G1 X103.572 Y27.841 E2.49921
G1 X104.191 Y27.932 E2.52001
G1 X105.242 Y28.141 E2.55566
G1 X107.557 Y28.715 E2.63498
G1 X110.073 Y29.269 E2.72067
G1 X112.574 Y29.747 E2.80536
G1 X115.012 Y30.138 E2.88749
G1 X117.511 Y30.469 E2.97133
G1 X120.03 Y30.733 E3.05557
G1 X122.49 Y30.917 E3.13762
G1 X125.066 Y31.038 E3.22339
G1 X127.754 Y31.095 E3.31281
G1 X128.725 Y31.162 E3.34519
G1 X129.687 Y31.314 E3.37758
G1 X130.632 Y31.55 E3.40998
G1 X131.552 Y31.869 E3.44236
G1 X132.44 Y32.268 E3.47474
G1 X133.29 Y32.744 E3.50714
G1 X134.093 Y33.293 E3.5395
G1 X134.793 Y33.865 E3.56956
G1 X135.541 Y34.595 E3.60433
G1 X136.15 Y35.308 E3.63551
G1 X136.736 Y36.131 E3.66912
G1 X137.226 Y36.971 E3.70146
G1 X137.628 Y37.82 E3.7327
G1 X137.976 Y38.768 E3.76629
G1 X138.229 Y39.708 E3.79867
G1 X138.399 Y40.674 E3.83129
G1 X138.487 Y41.786 E3.86839
G1 X138.5 Y42.41 E3.88915
G1 X138.499 Y44.53 E3.95966
G1 X138.487 Y45.268 E3.98421
G1 X138.428 Y46.24 E4.0166
G1 X138.282 Y47.203 E4.049
G1 X138.051 Y48.15 E4.08142
G1 X137.763 Y49.006 E4.11146
G1 X137.345 Y49.962 E4.14616
G1 X136.875 Y50.813 E4.17849
G1 X136.373 Y51.564 E4.20854
G1 X135.724 Y52.369 E4.24293
G1 X135.326 Y52.796 E4.26235
G1 X133.937 Y54.206 E4.32818
G1 X132.185 Y56.056 E4.41292
G1 X130.503 Y57.937 E4.49685
G1 X128.867 Y59.875 E4.5812
G1 X127.292 Y61.85 E4.66522
G1 X125.8 Y63.837 E4.74787
G1 X124.357 Y65.873 E4.83087
G1 X122.935 Y68.005 E4.9161
G1 X121.614 Y70.113 E4.99884
G1 X120.321 Y72.312 E5.08369
G1 X119.126 Y74.482 E5.16609
G1 X117.951 Y76.767 E5.25154
G1 X116.885 Y78.992 E5.3336
G1 X115.654 Y81.791 E5.4353
G1 X115.115 Y83.04 E5.48055
G1 X114.687 Y83.914 E5.51292
G1 X114.192 Y84.734 E5.54477
G1 X113.884 Y85.175 E5.56266
G1 X113.288 Y85.974 E5.59582
G1 X113.02 Y86.313 E5.61019
G1 X112.406 Y87.023 E5.64141
G1 X111.69 Y87.717 E5.67458
G1 X111.263 Y88.075 E5.69311
G1 X110.47 Y88.699 E5.72667
G1 X110.134 Y88.948 E5.74058
G1 X109.328 Y89.491 E5.77291
G1 X108.514 Y89.944 E5.80389
G1 X107.969 Y90.2 E5.82392
G1 X107.311 Y90.486 E5.84778
G1 X106.666 Y90.747 E5.87092
G1 X105.744 Y91.064 E5.90335
G1 X104.814 Y91.296 E5.93523
G1 X104.251 Y91.396 E5.95425
G1 X103.58 Y91.495 E5.97681
G1 X102.762 Y91.593 E6.00421
G1 X101.687 Y91.661 E6.04003
G1 X97.968 Y91.708 E6.16374
G1 X95.405 Y91.817 E6.24906
G1 X92.926 Y91.993 E6.33172
G1 X90.425 Y92.24 E6.41531
G1 X87.917 Y92.561 E6.49941
G1 X85.434 Y92.951 E6.583
G1 X82.991 Y93.405 E6.66565
G1 X80.499 Y93.942 E6.75044
G1 X78.053 Y94.541 E6.83419
G1 X75.631 Y95.206 E6.91773
G1 X73.24 Y95.939 E7.00091
G1 X70.838 Y96.75 E7.08523
G1 X68.467 Y97.624 E7.16928
G1 X66.175 Y98.544 E7.25142
G1 X64.548 Y99.258 E7.31052
G1 X63.515 Y99.698 E7.34786
G1 X62.36 Y100.114 E7.38869
G1 X61.267 Y100.434 E7.42657
G1 X60.258 Y100.705 E7.46132
G1 X59.307 Y100.914 E7.49371
G1 X58.372 Y101.034 E7.52506
G1 X57.171 Y101.071 E7.56503
G1 X56.41 Y101.053 E7.59034
G1 X53.758 Y101.026 E7.67855
G1 X51.282 Y101.072 E7.76092
G1 X50.45 Y101.109 E7.78862
G1 X49.415 Y101.14 E7.82306
G1 X48.44 Y101.124 E7.85549
G1 X47.499 Y101.025 E7.88696
G1 X46.113 Y100.73 E7.93409
G1 X44.846 Y100.367 E7.97793
G1 X44.111 Y100.142 E8.0035
G1 X43.26 Y99.839 E8.03354
G1 X42.311 Y99.402 E8.06829
G1 X41.465 Y98.916 E8.10074
G1 X40.69 Y98.374 E8.1322
G1 X39.648 Y97.467 E8.17814
G1 X38.578 Y96.403 E8.22833
G1 X37.611 Y95.407 E8.2745
G1 X36.574 Y94.309 E8.32474
G1 X34.805 Y92.538 E8.40799
G1 X32.951 Y90.786 E8.49283
G1 X31.081 Y89.115 E8.57624
G1 X29.619 Y87.871 E8.64009
G1 X28.903 Y87.201 E8.67271
G1 X28.177 Y86.38 E8.70916
G1 X27.707 Y85.787 E8.73432
G1 X27.277 Y85.218 E8.75804
G1 X26.769 Y84.471 E8.78809
G1 X26.483 Y83.982 E8.80693
G1 X24.771 Y80.878 E8.92483
G1 X23.492 Y78.717 E9.00835
G1 X22.147 Y76.584 E9.09222
G1 X20.744 Y74.493 E9.17598
G1 X19.276 Y72.434 E9.26008
G1 X17.894 Y70.602 E9.33641
G1 X17.041 Y69.5 E9.38276
G1 X16.482 Y68.702 E9.41516
G1 X15.997 Y67.859 E9.44751
G1 X15.586 Y66.976 E9.47991
G1 X15.265 Y66.091 E9.51122
G1 X15.054 Y65.413 E9.53483
G1 X14.738 Y64.335 E9.5722
G1 X14.502 Y63.474 E9.60189
G1 X14.289 Y62.524 E9.63427
G1 X14.159 Y61.559 E9.66666
G1 X14.117 Y60.585 E9.69908
G1 X14.161 Y59.612 E9.73148
G1 X14.292 Y58.642 E9.76403
G1 X14.535 Y57.588 E9.80001
G1 X15.041 Y55.817 E9.86127
G1 X15.254 Y55.125 E9.88535
G1 X15.583 Y54.211 E9.91766
G1 X15.96 Y53.39 E9.94771
G1 X16.458 Y52.518 E9.98111
G1 X16.802 Y52.005 E10.00165
G1 X18.02 Y50.298 E10.0714
G1 X19.456 Y48.178 E10.15656
G1 X20.805 Y46.058 E10.24014
G1 X22.094 Y43.899 E10.32377
G1 X23.31 Y41.724 E10.40665
G1 X24.477 Y39.491 E10.49045
G1 X25.807 Y36.75 E10.59178
G1 X26.141 Y36.033 E10.61809
G1 X26.578 Y35.195 E10.64953
G1 X27.267 Y34.146 E10.69127
G1 X27.846 Y33.373 E10.72339
G1 X28.103 Y33.046 E10.73722
G1 X28.741 Y32.309 E10.76965
G1 X28.856 Y32.198 E10.77496
G0 F1080 X29.43 Y31.642
G0 F6000 X29.688 Y31.948
G1 F1200 X30.137 Y31.57 E10.79448
G1 X30.679 Y31.14 E10.81749
G1 X31.247 Y30.711 E10.84117
G1 X32.025 Y30.188 E10.87235
G1 X32.841 Y29.737 E10.90336
G1 X33.311 Y29.518 E10.92061
G1 X33.964 Y29.234 E10.94429
G1 X34.612 Y28.97 E10.96756
G1 X35.5 Y28.664 E10.9988
G1 X36.403 Y28.439 E11.02975
G1 X36.939 Y28.344 E11.04786
G1 X37.922 Y28.202 E11.08089
G1 X38.357 Y28.151 E11.09546
G1 X39.194 Y28.088 E11.12338
G1 X39.795 Y28.073 E11.14337
G1 X100.866 Y28.071 E13.1746
G1 X101.729 Y28.083 E13.20331
G1 X102.686 Y28.141 E13.2352
G1 X103.514 Y28.237 E13.26292
G1 X104.133 Y28.328 E13.28373
G1 X105.146 Y28.529 E13.31808
G1 X107.471 Y29.106 E13.39776
G1 X109.987 Y29.66 E13.48344
G1 X112.501 Y30.14 E13.56857
G1 X114.959 Y30.535 E13.65137
G1 X117.458 Y30.866 E13.73521
G1 X119.991 Y31.131 E13.81992
G1 X122.471 Y31.317 E13.90264
G1 X125.047 Y31.438 E13.98841
G1 X127.727 Y31.494 E14.07757
G1 X128.663 Y31.557 E14.10877
G1 X129.591 Y31.702 E14.14001
G1 X130.502 Y31.928 E14.17123
G1 X131.389 Y32.234 E14.20244
G1 X132.245 Y32.617 E14.23363
G1 X133.065 Y33.075 E14.26487
G1 X133.84 Y33.603 E14.29606
G1 X134.54 Y34.175 E14.32612
G1 X135.237 Y34.855 E14.35851
G1 X135.825 Y35.541 E14.38856
G1 X136.391 Y36.333 E14.42094
G1 X136.864 Y37.142 E14.45211
G1 X137.266 Y37.991 E14.48335
G1 X137.59 Y38.872 E14.51457
G1 X137.835 Y39.778 E14.54579
G1 X138 Y40.706 E14.57714
G1 X138.087 Y41.794 E14.61344
G1 X138.1 Y42.41 E14.63393
G1 X138.099 Y44.524 E14.70424
G1 X138.088 Y45.244 E14.72819
G1 X138.032 Y46.181 E14.75942
G1 X137.893 Y47.109 E14.79062
G1 X137.672 Y48.022 E14.82187
G1 X137.384 Y48.878 E14.85191
G1 X136.994 Y49.769 E14.88426
G1 X136.542 Y50.591 E14.91546
G1 X136.04 Y51.342 E14.9455
G1 X135.432 Y52.096 E14.97772
G1 X135.041 Y52.515 E14.99678
G1 X133.652 Y53.925 E15.06261
G1 X131.887 Y55.789 E15.14799
G1 X130.205 Y57.67 E15.23192
G1 X128.561 Y59.617 E15.31667
G1 X126.979 Y61.601 E15.40107
G1 X125.48 Y63.597 E15.48409
G1 X124.024 Y65.651 E15.56783
G1 X122.602 Y67.783 E15.65307
G1 X121.269 Y69.91 E15.73656
G1 X119.976 Y72.109 E15.8214
G1 X118.77 Y74.299 E15.90456
G1 X117.595 Y76.584 E15.99002
G1 X116.524 Y78.819 E16.07245
G1 X115.288 Y81.63 E16.17458
G1 X114.755 Y82.865 E16.21932
G1 X114.344 Y83.708 E16.25051
G1 X113.864 Y84.505 E16.28146
G1 X113.563 Y84.936 E16.29894
G1 X112.974 Y85.726 E16.33172
G1 X112.717 Y86.051 E16.3455
G1 X112.103 Y86.761 E16.37672
G1 X111.433 Y87.41 E16.40774
G1 X111.006 Y87.768 E16.42627
G1 X110.231 Y88.378 E16.45908
G1 X109.91 Y88.617 E16.47239
G1 X109.133 Y89.142 E16.50358
G1 X108.344 Y89.582 E16.53363
G1 X107.809 Y89.833 E16.55328
G1 X107.161 Y90.115 E16.57679
G1 X106.535 Y90.369 E16.59925
G1 X105.647 Y90.676 E16.6305
G1 X104.744 Y90.902 E16.66147
G1 X104.192 Y91 E16.68011
G1 X103.532 Y91.098 E16.7023
G1 X102.737 Y91.194 E16.72894
G1 X101.682 Y91.261 E16.7641
G1 X97.951 Y91.308 E16.8882
G1 X95.388 Y91.417 E16.97352
G1 X92.895 Y91.594 E17.05665
G1 X90.374 Y91.843 E17.14091
G1 X87.866 Y92.164 E17.225
G1 X85.372 Y92.556 E17.30897
G1 X82.907 Y93.014 E17.39236
G1 X80.404 Y93.553 E17.47752
G1 X77.958 Y94.152 E17.56128
G1 X75.525 Y94.821 E17.64521
G1 X73.112 Y95.56 E17.72914
G1 X70.71 Y96.371 E17.81346
G1 X68.318 Y97.253 E17.89826
G1 X66.014 Y98.178 E17.98083
G1 X64.391 Y98.89 E18.03978
G1 X63.379 Y99.322 E18.07638
G1 X62.247 Y99.73 E18.1164
G1 X61.163 Y100.048 E18.15397
G1 X60.172 Y100.314 E18.1881
G1 X59.255 Y100.517 E18.21934
G1 X58.359 Y100.634 E18.24939
G1 X57.18 Y100.671 E18.28863
G1 X56.419 Y100.653 E18.31394
G1 X53.755 Y100.626 E18.40255
G1 X51.264 Y100.672 E18.48542
G1 X50.438 Y100.709 E18.51292
G1 X49.421 Y100.74 E18.54676
G1 X48.482 Y100.726 E18.578
G1 X47.541 Y100.627 E18.60947
G1 X46.223 Y100.345 E18.65429
G1 X44.963 Y99.985 E18.69788
G1 X44.245 Y99.765 E18.72286
G1 X43.394 Y99.462 E18.7529
G1 X42.51 Y99.055 E18.78527
G1 X41.694 Y98.588 E18.81654
G1 X40.953 Y98.072 E18.84657
G1 X39.911 Y97.165 E18.89252
G1 X38.865 Y96.124 E18.9416
G1 X37.902 Y95.132 E18.98759
G1 X36.865 Y94.034 E19.03782
G1 X35.088 Y92.255 E19.12145
G1 X33.226 Y90.495 E19.20667
G1 X31.348 Y88.817 E19.29043
G1 X29.892 Y87.579 E19.354
G1 X29.203 Y86.936 E19.38534
G1 X28.477 Y86.115 E19.4218
G1 X28.026 Y85.546 E19.44594
G1 X27.608 Y84.993 E19.469
G1 X27.1 Y84.246 E19.49905
G1 X26.833 Y83.789 E19.51665
G1 X25.115 Y80.674 E19.63497
G1 X23.836 Y78.513 E19.71849
G1 X22.479 Y76.361 E19.80311
G1 X21.076 Y74.27 E19.88686
G1 X19.602 Y72.202 E19.97132
G1 X18.213 Y70.361 E20.04803
G1 X17.368 Y69.27 E20.09393
G1 X16.828 Y68.502 E20.12515
G1 X16.359 Y67.69 E20.15634
G1 X15.962 Y66.839 E20.18757
G1 X15.647 Y65.972 E20.21825
G1 X15.438 Y65.3 E20.24166
G1 X15.124 Y64.229 E20.27878
G1 X14.892 Y63.386 E20.30786
G1 X14.685 Y62.47 E20.3391
G1 X14.559 Y61.541 E20.37028
G1 X14.517 Y60.602 E20.40154
G1 X14.558 Y59.665 E20.43274
G1 X14.682 Y58.732 E20.46404
G1 X14.92 Y57.698 E20.49933
G1 X15.423 Y55.934 E20.56034
G1 X15.63 Y55.26 E20.58379
G1 X15.947 Y54.378 E20.61496
G1 X16.324 Y53.557 E20.64501
G1 X16.79 Y52.741 E20.67627
G1 X17.128 Y52.237 E20.69645
G1 X18.346 Y50.53 E20.7662
G1 X19.787 Y48.402 E20.85167
G1 X21.142 Y46.273 E20.93561
G1 X22.437 Y44.104 E21.01963
G1 X23.665 Y41.909 E21.10329
G1 X24.832 Y39.676 E21.18709
G1 X26.166 Y36.925 E21.28878
G1 X26.496 Y36.218 E21.31473
G1 X26.933 Y35.38 E21.34616
G1 X27.587 Y34.386 E21.38573
G1 X28.16 Y33.62 E21.41755
G1 X28.406 Y33.307 E21.43079
G1 X29.019 Y32.596 E21.46202
G1 X29.114 Y32.504 E21.46641
G0 F1080 X29.688 Y31.948
G0 F6000 X29.946 Y32.254
G1 F1200 X30.386 Y31.883 E21.48556
G1 X30.92 Y31.459 E21.50824
G1 X31.471 Y31.043 E21.5312
G1 X32.219 Y30.538 E21.56122
G1 X33.01 Y30.1 E21.59129
G1 X33.471 Y29.885 E21.60821
G1 X34.115 Y29.604 E21.63158
G1 X34.743 Y29.348 E21.65413
G1 X35.597 Y29.052 E21.6842
G1 X36.473 Y28.833 E21.71423
G1 X36.996 Y28.74 E21.7319
G1 X37.969 Y28.599 E21.7646
G1 X38.387 Y28.55 E21.77859
G1 X39.204 Y28.488 E21.80585
G1 X39.795 Y28.473 E21.82551
G1 X100.861 Y28.471 E23.85657
G1 X101.705 Y28.482 E23.88465
G1 X102.64 Y28.538 E23.9158
G1 X103.456 Y28.633 E23.94312
G1 X104.075 Y28.724 E23.96393
G1 X105.05 Y28.917 E23.99699
G1 X107.385 Y29.497 E24.07701
G1 X109.901 Y30.051 E24.1627
G1 X112.434 Y30.534 E24.24847
G1 X114.906 Y30.932 E24.33174
G1 X117.405 Y31.263 E24.41559
G1 X119.952 Y31.529 E24.50076
G1 X122.452 Y31.717 E24.58415
G1 X125.028 Y31.838 E24.66992
G1 X127.701 Y31.893 E24.75884
G1 X128.602 Y31.952 E24.78887
G1 X129.495 Y32.09 E24.81893
G1 X130.372 Y32.306 E24.84897
G1 X131.226 Y32.599 E24.879
G1 X132.051 Y32.967 E24.90904
G1 X132.84 Y33.406 E24.93907
G1 X133.587 Y33.913 E24.9691
G1 X134.287 Y34.485 E24.99917
G1 X134.933 Y35.115 E25.02918
G1 X135.521 Y35.801 E25.05923
G1 X136.046 Y36.536 E25.08927
G1 X136.503 Y37.314 E25.11928
G1 X136.891 Y38.13 E25.14934
G1 X137.204 Y38.977 E25.17937
G1 X137.441 Y39.849 E25.20942
G1 X137.601 Y40.738 E25.23947
G1 X137.687 Y41.803 E25.275
G1 X137.7 Y42.41 E25.2952
G1 X137.699 Y44.518 E25.36531
G1 X137.689 Y45.221 E25.38869
G1 X137.636 Y46.123 E25.41875
G1 X137.504 Y47.016 E25.44877
G1 X137.293 Y47.894 E25.4788
G1 X137.005 Y48.75 E25.50884
G1 X136.643 Y49.577 E25.53887
G1 X136.209 Y50.369 E25.56891
G1 X135.707 Y51.12 E25.59895
G1 X135.14 Y51.823 E25.62899
G1 X134.756 Y52.234 E25.6477
G1 X133.367 Y53.644 E25.71353
G1 X131.589 Y55.522 E25.79955
G1 X129.907 Y57.403 E25.88347
G1 X128.255 Y59.359 E25.96863
G1 X126.666 Y61.352 E26.0534
G1 X125.16 Y63.357 E26.13681
G1 X123.691 Y65.429 E26.22129
G1 X122.269 Y67.561 E26.30652
G1 X120.924 Y69.707 E26.39076
G1 X119.631 Y71.906 E26.4756
G1 X118.414 Y74.116 E26.55952
G1 X117.239 Y76.401 E26.64498
G1 X116.163 Y78.646 E26.72778
G1 X114.922 Y81.469 E26.83034
G1 X114.395 Y82.69 E26.87458
G1 X114.001 Y83.502 E26.90459
G1 X113.536 Y84.276 E26.93463
G1 X113.242 Y84.697 E26.9517
G1 X112.66 Y85.478 E26.9841
G1 X112.414 Y85.79 E26.99732
G1 X111.824 Y86.474 E27.02736
G1 X111.176 Y87.103 E27.0574
G1 X110.749 Y87.461 E27.07593
G1 X109.992 Y88.057 E27.10797
G1 X109.685 Y88.286 E27.12071
G1 X108.938 Y88.793 E27.15074
G1 X108.149 Y89.233 E27.18079
G1 X107.65 Y89.466 E27.1991
G1 X107.01 Y89.744 E27.22231
G1 X106.403 Y89.991 E27.24411
G1 X105.55 Y90.288 E27.27415
G1 X104.674 Y90.508 E27.30419
G1 X104.133 Y90.604 E27.32247
G1 X103.484 Y90.701 E27.34429
G1 X102.712 Y90.795 E27.37016
G1 X101.677 Y90.861 E27.40465
G1 X97.934 Y90.908 E27.52915
G1 X95.371 Y91.017 E27.61448
G1 X92.864 Y91.195 E27.69807
G1 X90.323 Y91.446 E27.78299
G1 X87.815 Y91.767 E27.86709
G1 X85.31 Y92.161 E27.95143
G1 X82.823 Y92.623 E28.03557
G1 X80.309 Y93.164 E28.1211
G1 X77.863 Y93.763 E28.20485
G1 X75.419 Y94.436 E28.28917
G1 X72.984 Y95.181 E28.37386
G1 X70.582 Y95.992 E28.45818
G1 X68.169 Y96.882 E28.54373
G1 X65.853 Y97.812 E28.62673
G1 X64.234 Y98.522 E28.68553
G1 X63.243 Y98.946 E28.72138
G1 X62.134 Y99.346 E28.7606
G1 X61.059 Y99.662 E28.79786
G1 X60.085 Y99.924 E28.83141
G1 X59.203 Y100.12 E28.86146
G1 X58.307 Y100.237 E28.89151
G1 X57.189 Y100.271 E28.92872
G1 X56.428 Y100.253 E28.95403
G1 X53.752 Y100.226 E29.04304
G1 X51.246 Y100.272 E29.12641
G1 X50.426 Y100.309 E29.15371
G1 X49.426 Y100.34 E29.18698
G1 X48.523 Y100.328 E29.21702
G1 X47.625 Y100.236 E29.24704
G1 X46.333 Y99.96 E29.29099
G1 X45.08 Y99.603 E29.33432
G1 X44.379 Y99.388 E29.35871
G1 X43.528 Y99.085 E29.38875
G1 X42.708 Y98.708 E29.41877
G1 X41.923 Y98.26 E29.44883
G1 X41.182 Y97.744 E29.47886
G1 X40.174 Y96.864 E29.52337
G1 X39.152 Y95.845 E29.57137
G1 X38.193 Y94.857 E29.61717
G1 X37.156 Y93.759 E29.6674
