;FLAVOR:Marlin
;TIME:10756
;Filament used: 9.60453m
;Layer height: 0.2
;MINX:66.5
;MINY:68.179
;MINZ:0.2
;MAXX:168.5
;MAXY:174.314
;MAXZ:12.4
;TARGET_MACHINE.NAME:BIQU B1
;Generated with Cura_SteamEngine 5.8.1
M82 ;absolute extrusion mode
                                 ; BIQU B1 Start G-code
M117 Getting the bed up to temp!
M140 S60      ; Set Heat Bed temperature
M190 S60      ; Wait for Heat Bed temperature
M117 Getting the extruder up to temp!
M104 S180    ; Set Extruder temperature
G92 E0                           ; Reset Extruder
M117 Homing axes
G28                              ; Home all axes
M109 S180    ; Wait for Extruder temperature
G1 Z2.0 F3000                    ; Move Z Axis up little to prevent scratching of Heat Bed
G1 X4.1 Y20 Z0.3 F5000.0         ; Move to start position
M117 Purging
G1 X4.1 Y200.0 Z0.3 F1500.0 E15  ; Draw the first line
G1 X4.4 Y200.0 Z0.3 F5000.0      ; Move to side a little
G1 X4.4 Y20 Z0.3 F1500.0 E30     ; Draw the second line
G92 E0                           ; Reset Extruder
M117 Lets make
G1 Z2.0 F3000                    ; Move Z Axis up little to prevent scratching of Heat Bed
G1 X5 Y20 Z0.3 F5000.0           ; Move over to prevent blob squish
G92 E0
G92 E0
G1 F4200 E-7
;LAYER_COUNT:62
;LAYER:0
M107
G0 F6000 X75.4 Y74.216 Z0.2
;TYPE:SKIRT
G1 F4200 E0
G1 F1200 X75.738 Y73.875 E0.01597
G1 X76.454 Y73.214 E0.04838
G1 X77.224 Y72.619 E0.08075
G1 X78.045 Y72.094 E0.11316
G1 X78.877 Y71.66 E0.14437
G1 X79.804 Y71.274 E0.17777
G1 X80.564 Y71.029 E0.20433
G1 X81.358 Y70.805 E0.23177
G1 X82.289 Y70.588 E0.26356
G1 X83.301 Y70.446 E0.29755
G1 X84.578 Y70.4 E0.34005
G1 X86.564 Y70.444 E0.40612
G1 X89.055 Y70.452 E0.48897
G1 X91.586 Y70.39 E0.57318
G1 X94.081 Y70.257 E0.65628
G1 X96.597 Y70.053 E0.74024
G1 X99.134 Y69.773 E0.82513
G1 X101.622 Y69.428 E0.90867
G1 X104.078 Y69.015 E0.99151
G1 X107.125 Y68.412 E1.09482
G1 X108.089 Y68.26 E1.12728
G1 X109.131 Y68.191 E1.16201
G1 X109.872 Y68.179 E1.18666
G1 X124.982 Y68.179 E1.68922
G1 X125.864 Y68.192 E1.71856
G1 X126.845 Y68.253 E1.75125
G1 X127.978 Y68.434 E1.78941
G1 X129.05 Y68.664 E1.82588
G1 X129.748 Y68.825 E1.8497
G1 X132.206 Y69.32 E1.9331
G1 X134.694 Y69.748 E2.01706
G1 X137.186 Y70.105 E2.10079
G1 X139.669 Y70.389 E2.18392
G1 X142.227 Y70.611 E2.26932
G1 X144.673 Y70.75 E2.3508
G1 X147.251 Y70.824 E2.43658
G1 X149.721 Y70.831 E2.51873
G1 X150.624 Y70.873 E2.5488
G1 X151.657 Y71.015 E2.58348
G1 X152.528 Y71.213 E2.61319
G1 X153.442 Y71.461 E2.64469
G1 X154.369 Y71.759 E2.67708
G1 X155.267 Y72.139 E2.70951
G1 X156.126 Y72.597 E2.74188
G1 X156.947 Y73.132 E2.77448
G1 X157.813 Y73.82 E2.81126
G1 X158.491 Y74.419 E2.84135
G1 X159.612 Y75.435 E2.89167
G1 X160.14 Y75.947 E2.91614
G1 X161.932 Y77.798 E3.00183
G1 X162.374 Y78.275 E3.02345
G1 X162.999 Y79.022 E3.05585
G1 X163.556 Y79.82 E3.08822
G1 X164.025 Y80.634 E3.11946
G1 X164.447 Y81.547 E3.15292
G1 X164.751 Y82.383 E3.1825
G1 X164.958 Y83.065 E3.20621
G1 X165.077 Y83.503 E3.2213
G1 X165.289 Y84.453 E3.25368
G1 X165.417 Y85.415 E3.28596
G1 X165.46 Y86.255 E3.31393
G1 X165.48 Y87.974 E3.37111
G1 X165.558 Y90.558 E3.45709
G1 X165.705 Y93.053 E3.54022
G1 X165.923 Y95.548 E3.62352
G1 X166.214 Y98.058 E3.70756
G1 X166.577 Y100.568 E3.79191
G1 X167.003 Y103.019 E3.87466
G1 X167.507 Y105.503 E3.95896
G1 X167.888 Y107.179 E4.01613
G1 X168.203 Y108.514 E4.06175
G1 X168.383 Y109.485 E4.09459
G1 X168.487 Y110.785 E4.13797
G1 X168.5 Y111.563 E4.16385
G1 X168.499 Y155.248 E5.61682
G1 X168.487 Y156.004 E5.64197
G1 X168.429 Y156.977 E5.67439
G1 X168.283 Y157.94 E5.70678
G1 X168.052 Y158.886 E5.73917
G1 X167.739 Y159.809 E5.77159
G1 X167.347 Y160.7 E5.80396
G1 X166.877 Y161.551 E5.8363
G1 X166.354 Y162.331 E5.86753
G1 X165.757 Y163.073 E5.89921
G1 X164.733 Y164.235 E5.95072
G1 X163.107 Y166.145 E6.03415
G1 X161.958 Y167.583 E6.09537
G1 X161.202 Y168.51 E6.13516
G1 X160.578 Y169.209 E6.16632
G1 X159.711 Y170.094 E6.20753
G1 X159.195 Y170.594 E6.23142
G1 X158.52 Y171.194 E6.26146
G1 X157.68 Y171.816 E6.29623
G1 X156.848 Y172.323 E6.32863
G1 X155.96 Y172.759 E6.36154
G1 X154.714 Y173.216 E6.40568
G1 X153.495 Y173.573 E6.44792
G1 X152.78 Y173.762 E6.47252
G1 X151.827 Y173.967 E6.50494
G1 X150.863 Y174.087 E6.53725
G1 X149.961 Y174.122 E6.56728
G1 X148.917 Y174.068 E6.60205
G1 X147.95 Y173.932 E6.63453
G1 X147.02 Y173.714 E6.6663
G1 X145.944 Y173.408 E6.7035
G1 X144.091 Y172.838 E6.76798
G1 X141.545 Y172.093 E6.85622
G1 X139.115 Y171.456 E6.93977
G1 X136.674 Y170.89 E7.02311
G1 X134.181 Y170.386 E7.10771
G1 X131.716 Y169.959 E7.19091
G1 X129.241 Y169.602 E7.27408
G1 X126.723 Y169.311 E7.35839
G1 X124.227 Y169.094 E7.44172
G1 X121.705 Y168.948 E7.52574
G1 X119.197 Y168.873 E7.6092
G1 X116.672 Y168.868 E7.69318
G1 X114.176 Y168.934 E7.77622
G1 X111.644 Y169.072 E7.86056
G1 X109.168 Y169.279 E7.9432
G1 X106.629 Y169.564 E8.02818
G1 X104.123 Y169.916 E8.11235
G1 X101.656 Y170.333 E8.19557
G1 X99.225 Y170.816 E8.278
G1 X96.737 Y171.385 E8.36289
G1 X94.305 Y172.014 E8.44644
G1 X91.845 Y172.723 E8.53159
G1 X89.782 Y173.376 E8.60356
G1 X88.74 Y173.683 E8.63969
G1 X87.735 Y173.954 E8.67431
G1 X86.782 Y174.159 E8.70673
G1 X85.818 Y174.279 E8.73904
G1 X84.916 Y174.314 E8.76907
G1 X83.871 Y174.26 E8.80387
G1 X82.906 Y174.123 E8.83629
G1 X81.976 Y173.906 E8.86805
G1 X80.935 Y173.61 E8.90405
G1 X80.187 Y173.38 E8.93008
G1 X79.304 Y173.062 E8.96129
G1 X78.389 Y172.638 E8.99483
G1 X77.545 Y172.151 E9.02724
G1 X76.804 Y171.634 E9.05729
G1 X75.771 Y170.744 E9.10264
G1 X75.051 Y170.038 E9.13618
G1 X74.34 Y169.31 E9.17003
G1 X73.591 Y168.444 E9.20811
G1 X72.847 Y167.479 E9.24864
G1 X71.23 Y165.436 E9.3353
G1 X69.809 Y163.734 E9.40904
G1 X69.137 Y162.95 E9.44339
G1 X68.538 Y162.182 E9.47578
G1 X68.046 Y161.424 E9.50584
G1 X67.557 Y160.5 E9.54061
G1 X67.194 Y159.635 E9.57181
G1 X66.889 Y158.673 E9.60537
G1 X66.677 Y157.723 E9.63775
G1 X66.554 Y156.799 E9.66875
G1 X66.515 Y156.148 E9.69044
G1 X66.5 Y155.491 E9.7123
G1 X66.501 Y111.536 E11.17425
G1 X66.514 Y110.794 E11.19893
G1 X66.576 Y109.816 E11.23153
G1 X66.755 Y108.697 E11.26922
G1 X66.979 Y107.653 E11.30473
G1 X67.485 Y105.127 E11.39042
G1 X67.913 Y102.625 E11.47484
G1 X68.261 Y100.174 E11.55718
G1 X68.546 Y97.653 E11.64156
G1 X68.758 Y95.172 E11.72438
G1 X68.9 Y92.64 E11.80873
G1 X68.971 Y90.125 E11.89241
G1 X68.959 Y86.778 E12.00373
G1 X68.989 Y85.805 E12.03611
G1 X69.1 Y84.867 E12.06753
G1 X69.386 Y83.584 E12.11125
G1 X69.613 Y82.793 E12.13862
G1 X69.901 Y81.937 E12.16866
G1 X70.32 Y80.981 E12.20337
G1 X70.797 Y80.118 E12.23617
G1 X71.503 Y79.1 E12.27737
G1 X72.216 Y78.194 E12.31572
G1 X72.312 Y78.057 E12.32128
G1 X74.251 Y75.523 E12.42741
G1 X74.857 Y74.802 E12.45873
G0 F1080 X74.896 Y74.756
G0 X75.4 Y74.216
G0 F6000 X75.685 Y74.497
G1 F1200 X76.01 Y74.168 E12.47412
G1 X76.699 Y73.53 E12.50535
G1 X77.44 Y72.956 E12.53652
G1 X78.23 Y72.449 E12.56774
G1 X79.062 Y72.015 E12.59896
G1 X79.927 Y71.655 E12.63012
G1 X80.673 Y71.414 E12.65619
G1 X81.449 Y71.195 E12.68301
G1 X82.38 Y70.978 E12.71481
G1 X83.316 Y70.846 E12.74624
G1 X84.569 Y70.8 E12.78795
G1 X86.555 Y70.844 E12.85402
G1 X89.064 Y70.852 E12.93747
G1 X91.596 Y70.79 E13.02171
G1 X94.113 Y70.656 E13.10554
G1 X96.64 Y70.451 E13.18987
G1 X99.178 Y70.171 E13.27479
G1 X101.677 Y69.824 E13.35871
G1 X104.155 Y69.408 E13.44228
G1 X106.408 Y68.968 E13.51863
G1 X107.188 Y68.807 E13.54512
G1 X108.116 Y68.659 E13.57638
G1 X109.137 Y68.591 E13.61041
G1 X109.878 Y68.579 E13.63506
G1 X124.976 Y68.579 E14.13722
G1 X125.84 Y68.591 E14.16596
G1 X126.782 Y68.648 E14.19735
G1 X127.894 Y68.825 E14.2348
G1 X128.96 Y69.054 E14.27106
G1 X129.658 Y69.215 E14.29489
G1 X132.131 Y69.713 E14.37879
G1 X134.637 Y70.144 E14.46337
G1 X137.129 Y70.501 E14.5471
G1 X139.635 Y70.788 E14.63099
G1 X142.193 Y71.009 E14.71639
G1 X144.662 Y71.15 E14.79864
G1 X147.24 Y71.224 E14.88442
G1 X149.702 Y71.231 E14.96631
G1 X150.605 Y71.273 E14.99637
G1 X151.568 Y71.405 E15.0287
G1 X152.423 Y71.599 E15.05786
G1 X153.32 Y71.842 E15.08877
G1 X154.214 Y72.128 E15.11999
G1 X155.079 Y72.492 E15.15121
G1 X155.908 Y72.932 E15.18242
G1 X156.698 Y73.445 E15.21375
G1 X157.548 Y74.12 E15.24985
G1 X158.222 Y74.715 E15.27975
G1 X159.334 Y75.723 E15.32967
G1 X159.853 Y76.225 E15.35369
G1 X161.639 Y78.07 E15.4391
G1 X162.068 Y78.532 E15.46006
G1 X162.671 Y79.251 E15.49128
G1 X163.209 Y80.02 E15.52249
G1 X163.678 Y80.834 E15.55374
G1 X164.071 Y81.684 E15.58488
G1 X164.368 Y82.5 E15.61377
G1 X164.572 Y83.17 E15.63706
G1 X164.687 Y83.591 E15.65158
G1 X164.893 Y84.506 E15.68277
G1 X165.018 Y85.435 E15.71395
G1 X165.06 Y86.26 E15.74142
G1 X165.08 Y87.986 E15.79883
G1 X165.158 Y90.57 E15.88482
G1 X165.307 Y93.088 E15.96871
G1 X165.526 Y95.594 E16.05238
G1 X165.818 Y98.115 E16.13679
G1 X166.183 Y100.636 E16.22151
G1 X166.611 Y103.099 E16.30466
G1 X167.117 Y105.592 E16.38927
G1 X167.499 Y107.271 E16.44654
G1 X167.81 Y108.588 E16.49155
G1 X167.984 Y109.517 E16.52298
G1 X168.087 Y110.792 E16.56553
G1 X168.1 Y111.563 E16.59118
G1 X168.099 Y155.242 E18.04394
G1 X168.088 Y155.981 E18.06853
G1 X168.033 Y156.918 E18.09974
G1 X167.894 Y157.846 E18.13095
G1 X167.673 Y158.758 E18.16217
G1 X167.373 Y159.648 E18.1934
G1 X166.996 Y160.507 E18.2246
G1 X166.544 Y161.329 E18.25581
G1 X166.042 Y162.08 E18.28585
G1 X165.445 Y162.822 E18.31753
G1 X164.433 Y163.971 E18.36845
G1 X162.794 Y165.895 E18.45251
G1 X161.648 Y167.33 E18.5136
G1 X160.903 Y168.244 E18.55281
G1 X160.292 Y168.929 E18.58334
G1 X159.432 Y169.807 E18.62422
G1 X158.929 Y170.295 E18.64753
G1 X158.254 Y170.895 E18.67757
G1 X157.472 Y171.475 E18.70995
G1 X156.671 Y171.964 E18.74116
G1 X155.822 Y172.383 E18.77265
G1 X154.576 Y172.84 E18.8168
G1 X153.393 Y173.186 E18.85779
G1 X152.695 Y173.371 E18.88181
G1 X151.777 Y173.57 E18.91305
G1 X150.847 Y173.687 E18.94423
G1 X149.945 Y173.722 E18.97425
G1 X148.972 Y173.672 E19.00665
G1 X148.041 Y173.542 E19.03792
G1 X147.129 Y173.329 E19.06907
G1 X146.062 Y173.026 E19.10596
G1 X144.203 Y172.454 E19.17065
G1 X141.657 Y171.709 E19.25888
G1 X139.205 Y171.066 E19.34319
G1 X136.764 Y170.5 E19.42654
G1 X134.257 Y169.993 E19.51161
G1 X131.773 Y169.563 E19.59545
G1 X129.298 Y169.206 E19.67863
G1 X126.769 Y168.914 E19.7633
G1 X124.252 Y168.695 E19.84733
G1 X121.717 Y168.548 E19.93179
G1 X119.209 Y168.473 E20.01524
G1 X116.662 Y168.468 E20.09995
G1 X114.165 Y168.534 E20.18303
G1 X111.611 Y168.674 E20.26811
G1 X109.123 Y168.881 E20.35115
G1 X106.584 Y169.166 E20.43612
G1 X104.067 Y169.52 E20.52066
G1 X101.583 Y169.94 E20.60445
G1 X99.136 Y170.426 E20.68743
G1 X96.648 Y170.995 E20.77232
G1 X94.199 Y171.628 E20.85645
G1 X91.724 Y172.342 E20.94213
G1 X89.669 Y172.992 E21.01381
G1 X88.636 Y173.297 E21.04964
G1 X87.65 Y173.563 E21.0836
G1 X86.732 Y173.762 E21.11485
G1 X85.802 Y173.879 E21.14602
G1 X84.9 Y173.914 E21.17604
G1 X83.927 Y173.864 E21.20845
G1 X82.997 Y173.733 E21.23969
G1 X82.085 Y173.521 E21.27083
G1 X81.053 Y173.228 E21.30651
G1 X80.322 Y173.003 E21.33195
G1 X79.472 Y172.699 E21.36197
G1 X78.588 Y172.291 E21.39436
G1 X77.774 Y171.823 E21.42559
G1 X77.033 Y171.306 E21.45564
G1 X76.051 Y170.458 E21.49879
G1 X75.337 Y169.759 E21.53202
G1 X74.643 Y169.048 E21.56507
G1 X73.894 Y168.182 E21.60315
G1 X73.164 Y167.235 E21.64292
G1 X71.544 Y165.188 E21.72975
G1 X70.116 Y163.478 E21.80384
G1 X69.452 Y162.704 E21.83776
G1 X68.874 Y161.964 E21.86899
G1 X68.382 Y161.206 E21.89905
G1 X67.926 Y160.345 E21.93146
G1 X67.563 Y159.48 E21.96266
G1 X67.279 Y158.586 E21.99385
G1 X67.074 Y157.67 E22.02507
G1 X66.951 Y156.746 E22.05608
G1 X66.915 Y156.139 E22.0763
G1 X66.9 Y155.491 E22.09786
G1 X66.901 Y111.543 E23.55958
G1 X66.913 Y110.819 E23.58366
G1 X66.971 Y109.879 E23.61498
G1 X67.146 Y108.781 E23.65197
G1 X67.37 Y107.737 E23.68748
G1 X67.877 Y105.206 E23.77333
G1 X68.307 Y102.692 E23.85816
G1 X68.657 Y100.23 E23.94087
G1 X68.945 Y97.687 E24.02599
G1 X69.156 Y95.206 E24.10881
G1 X69.3 Y92.651 E24.19393
G1 X69.371 Y90.136 E24.27761
G1 X69.359 Y86.79 E24.3889
G1 X69.386 Y85.852 E24.42011
G1 X69.497 Y84.914 E24.45152
G1 X69.77 Y83.694 E24.4931
G1 X69.992 Y82.921 E24.51985
G1 X70.28 Y82.065 E24.54989
G1 X70.67 Y81.174 E24.58224
G1 X71.126 Y80.346 E24.61368
G1 X71.832 Y79.328 E24.65489
G1 X72.543 Y78.425 E24.69311
G1 X72.63 Y78.3 E24.69818
G1 X74.569 Y75.766 E24.8043
G1 X75.142 Y75.084 E24.83393
G0 F1080 X75.188 Y75.029
G0 X75.685 Y74.497
G0 F6000 X75.97 Y74.778
G1 F1200 X76.282 Y74.461 E24.84872
G1 X76.944 Y73.846 E24.87878
G1 X77.657 Y73.292 E24.90881
G1 X78.416 Y72.803 E24.93884
G1 X79.216 Y72.384 E24.96887
G1 X80.05 Y72.036 E24.99893
G1 X80.782 Y71.799 E25.02452
G1 X81.558 Y71.58 E25.05134
G1 X82.437 Y71.374 E25.08137
G1 X83.331 Y71.246 E25.11141
G1 X84.56 Y71.2 E25.15231
G1 X86.546 Y71.244 E25.21838
G1 X89.073 Y71.252 E25.30243
G1 X91.606 Y71.19 E25.3867
G1 X94.145 Y71.055 E25.47127
G1 X96.683 Y70.849 E25.55596
G1 X99.222 Y70.569 E25.64092
G1 X101.732 Y70.22 E25.72521
G1 X104.232 Y69.801 E25.80952
G1 X106.485 Y69.361 E25.88587
G1 X107.252 Y69.202 E25.91192
G1 X108.143 Y69.058 E25.94194
G1 X109.143 Y68.991 E25.97528
G1 X109.884 Y68.979 E25.99992
G1 X124.971 Y68.979 E26.50172
G1 X125.817 Y68.99 E26.52986
G1 X126.719 Y69.043 E26.55991
G1 X127.81 Y69.216 E26.59665
G1 X128.87 Y69.444 E26.63272
G1 X129.568 Y69.605 E26.65654
G1 X132.056 Y70.106 E26.74095
G1 X134.58 Y70.54 E26.82613
G1 X137.072 Y70.897 E26.90986
G1 X139.601 Y71.187 E26.99453
G1 X142.159 Y71.407 E27.07992
G1 X144.651 Y71.55 E27.16294
G1 X147.229 Y71.624 E27.24872
G1 X149.683 Y71.631 E27.33034
G1 X150.586 Y71.673 E27.36041
G1 X151.48 Y71.795 E27.39042
G1 X152.319 Y71.985 E27.41903
G1 X153.199 Y72.223 E27.44935
G1 X154.059 Y72.497 E27.47937
G1 X154.892 Y72.846 E27.50941
G1 X155.691 Y73.268 E27.53947
G1 X156.449 Y73.758 E27.56949
G1 X157.283 Y74.42 E27.6049
G1 X157.953 Y75.011 E27.63462
G1 X159.056 Y76.011 E27.68414
G1 X159.566 Y76.503 E27.70771
G1 X161.346 Y78.343 E27.79285
G1 X161.762 Y78.79 E27.81316
G1 X162.344 Y79.481 E27.84321
G1 X162.863 Y80.22 E27.87325
G1 X163.315 Y81.002 E27.90329
G1 X163.695 Y81.821 E27.93332
G1 X163.985 Y82.617 E27.9615
G1 X164.186 Y83.276 E27.98441
G1 X164.297 Y83.68 E27.99835
G1 X164.497 Y84.56 E28.02836
G1 X164.619 Y85.455 E28.0584
G1 X164.66 Y86.265 E28.08538
G1 X164.68 Y87.998 E28.14302
G1 X164.758 Y90.582 E28.22901
G1 X164.909 Y93.123 E28.31367
G1 X165.129 Y95.64 E28.3977
G1 X165.422 Y98.172 E28.48248
G1 X165.789 Y100.704 E28.56758
G1 X166.219 Y103.179 E28.65113
G1 X166.727 Y105.681 E28.73604
G1 X167.11 Y107.363 E28.79342
G1 X167.417 Y108.662 E28.83781
G1 X167.585 Y109.549 E28.86784
G1 X167.688 Y110.824 E28.91038
G1 X167.7 Y111.563 E28.93497
G1 X167.699 Y155.236 E30.38754
G1 X167.689 Y155.958 E30.41155
G1 X167.637 Y156.86 E30.4416
G1 X167.505 Y157.753 E30.47163
G1 X167.294 Y158.631 E30.50166
G1 X167.007 Y159.488 E30.53172
G1 X166.645 Y160.315 E30.56175
G1 X166.211 Y161.107 E30.59178
G1 X165.709 Y161.858 E30.62183
G1 X165.145 Y162.558 E30.65173
G1 X164.133 Y163.707 E30.70265
G1 X162.481 Y165.645 E30.78735
G1 X161.338 Y167.077 E30.84829
G1 X160.604 Y167.978 E30.88695
G1 X160.006 Y168.649 E30.91684
G1 X159.153 Y169.52 E30.95739
G1 X158.663 Y169.996 E30.98011
G1 X157.988 Y170.596 E31.01015
G1 X157.263 Y171.134 E31.04017
G1 X156.493 Y171.606 E31.07021
G1 X155.684 Y172.007 E31.10025
G1 X154.438 Y172.464 E31.14439
G1 X153.29 Y172.799 E31.18416
G1 X152.609 Y172.98 E31.2076
G1 X151.727 Y173.173 E31.23763
G1 X150.831 Y173.287 E31.26767
G1 X149.929 Y173.322 E31.29769
G1 X149.027 Y173.276 E31.32773
G1 X148.132 Y173.152 E31.35778
G1 X147.238 Y172.944 E31.38831
G1 X146.18 Y172.644 E31.42489
G1 X144.315 Y172.07 E31.48979
G1 X141.769 Y171.325 E31.57802
G1 X139.295 Y170.676 E31.66309
G1 X136.854 Y170.11 E31.74643
G1 X134.333 Y169.6 E31.83198
G1 X131.83 Y169.167 E31.91647
G1 X129.355 Y168.81 E31.99964
G1 X126.815 Y168.517 E32.08468
G1 X124.277 Y168.296 E32.16941
G1 X121.729 Y168.148 E32.2543
G1 X119.221 Y168.073 E32.33776
G1 X116.652 Y168.068 E32.4232
G1 X114.154 Y168.134 E32.50632
G1 X111.578 Y168.276 E32.59212
G1 X109.078 Y168.483 E32.67556
G1 X106.539 Y168.768 E32.76054
G1 X104.011 Y169.124 E32.84545
