;FLAVOR:Marlin
;TIME:10379
;Filament used: 9.68784m
;Layer height: 0.2
;MINX:66.5
;MINY:60.679
;MINZ:0.2
;MAXX:168.5
;MAXY:175.664
;MAXZ:12.4
;TARGET_MACHINE.NAME:BIQU B1
;Generated with Cura_SteamEngine 5.8.1
M82 ;absolute extrusion mode
                                 ; BIQU B1 Start G-code
M117 Getting the bed up to temp!
M140 S60      ; Set Heat Bed temperature
M190 S60      ; Wait for Heat Bed temperature
M117 Getting the extruder up to temp!
M104 S180    ; Set Extruder temperature
G92 E0                           ; Reset Extruder
M117 Homing axes
G28                              ; Home all axes
M109 S180    ; Wait for Extruder temperature
G1 Z2.0 F3000                    ; Move Z Axis up little to prevent scratching of Heat Bed
G1 X4.1 Y20 Z0.3 F5000.0         ; Move to start position
M117 Purging
G1 X4.1 Y200.0 Z0.3 F1500.0 E15  ; Draw the first line
G1 X4.4 Y200.0 Z0.3 F5000.0      ; Move to side a little
G1 X4.4 Y20 Z0.3 F1500.0 E30     ; Draw the second line
G92 E0                           ; Reset Extruder
M117 Lets make
G1 Z2.0 F3000                    ; Move Z Axis up little to prevent scratching of Heat Bed
G1 X5 Y20 Z0.3 F5000.0           ; Move over to prevent blob squish
G92 E0
G92 E0
G1 F4200 E-7
;LAYER_COUNT:62
;LAYER:0
M107
G0 F6000 X74.88 Y67.272 Z0.2
;TYPE:SKIRT
G1 F4200 E0
G1 F1200 X75.345 Y66.773 E0.02269
G1 X75.721 Y66.392 E0.04049
G1 X76.434 Y65.73 E0.07285
G1 X77.204 Y65.133 E0.10526
G1 X78.024 Y64.606 E0.13768
G1 X78.886 Y64.155 E0.17003
G1 X79.782 Y63.782 E0.20231
G1 X80.567 Y63.529 E0.22975
G1 X81.378 Y63.302 E0.25776
G1 X82.328 Y63.081 E0.2902
G1 X83.304 Y62.946 E0.32297
G1 X84.578 Y62.9 E0.36537
G1 X86.564 Y62.944 E0.43144
G1 X89.055 Y62.952 E0.51429
G1 X91.586 Y62.89 E0.5985
G1 X94.081 Y62.757 E0.6816
G1 X96.597 Y62.553 E0.76556
G1 X99.134 Y62.273 E0.85045
G1 X101.622 Y61.928 E0.93399
G1 X104.078 Y61.515 E1.01683
G1 X106.326 Y61.076 E1.09301
G1 X107.118 Y60.913 E1.1199
G1 X108.083 Y60.76 E1.1524
G1 X109.129 Y60.691 E1.18726
G1 X109.872 Y60.679 E1.21198
G1 X124.982 Y60.679 E1.71454
G1 X125.864 Y60.692 E1.74388
G1 X126.845 Y60.753 E1.77657
G1 X127.978 Y60.934 E1.81473
G1 X129.05 Y61.164 E1.8512
G1 X129.748 Y61.325 E1.87502
G1 X132.206 Y61.82 E1.95842
G1 X134.694 Y62.248 E2.04239
G1 X137.186 Y62.605 E2.12612
G1 X139.669 Y62.889 E2.20924
G1 X142.227 Y63.111 E2.29464
G1 X144.673 Y63.25 E2.37612
G1 X147.251 Y63.324 E2.4619
G1 X149.721 Y63.331 E2.54406
G1 X150.624 Y63.373 E2.57412
G1 X151.657 Y63.515 E2.6088
G1 X152.528 Y63.713 E2.63851
G1 X153.442 Y63.961 E2.67001
G1 X154.369 Y64.259 E2.7024
G1 X155.266 Y64.638 E2.73479
G1 X156.065 Y65.06 E2.76484
G1 X156.621 Y65.406 E2.78662
G1 X159.201 Y67.12 E2.88964
G1 X160.465 Y67.928 E2.93954
G1 X161.232 Y68.469 E2.97076
G1 X161.991 Y69.111 E3.00382
G1 X162.381 Y69.491 E3.02193
G1 X162.913 Y70.044 E3.04745
G1 X163.202 Y70.36 E3.0617
G1 X163.824 Y71.108 E3.09405
G1 X164.379 Y71.909 E3.12646
G1 X164.86 Y72.755 E3.15883
G1 X165.266 Y73.64 E3.19122
G1 X165.572 Y74.495 E3.22142
G1 X165.775 Y75.171 E3.2449
G1 X165.904 Y75.649 E3.26136
G1 X166.116 Y76.599 E3.29374
G1 X166.24 Y77.534 E3.32511
G1 X166.281 Y78.794 E3.36704
G1 X166.224 Y81.014 E3.4409
G1 X166.224 Y83.529 E3.52455
G1 X166.296 Y86.051 E3.60847
G1 X166.437 Y88.55 E3.69172
G1 X166.649 Y91.063 E3.77559
G1 X166.935 Y93.573 E3.85962
G1 X167.283 Y96.024 E3.94196
G1 X167.715 Y98.55 E4.02719
G1 X168.265 Y101.295 E4.1203
G1 X168.418 Y102.26 E4.1528
G1 X168.488 Y103.31 E4.1878
G1 X168.5 Y104.063 E4.21285
G1 X168.499 Y147.776 E5.66675
G1 X168.485 Y148.545 E5.69233
G1 X168.424 Y149.515 E5.72466
G1 X168.29 Y150.408 E5.75469
G1 X168.091 Y151.257 E5.7837
G1 X167.879 Y152.021 E5.81007
G1 X167.481 Y153.391 E5.85752
G1 X166.843 Y155.846 E5.94188
G1 X166.273 Y158.328 E6.02658
G1 X165.787 Y160.753 E6.10884
G1 X165.326 Y163.467 E6.2004
G1 X165.161 Y164.528 E6.23612
G1 X164.958 Y165.515 E6.26963
G1 X164.777 Y166.2 E6.2932
G1 X164.603 Y166.785 E6.3135
G1 X164.284 Y167.705 E6.34588
G1 X163.886 Y168.593 E6.37825
G1 X163.41 Y169.444 E6.41068
G1 X162.861 Y170.247 E6.44303
G1 X162.272 Y170.968 E6.474
G1 X161.885 Y171.38 E6.4928
G1 X161.241 Y172.029 E6.52321
G1 X160.524 Y172.687 E6.55558
G1 X159.751 Y173.28 E6.58798
G1 X158.929 Y173.802 E6.62037
G1 X158.063 Y174.25 E6.6528
G1 X157.17 Y174.616 E6.68489
G1 X156.448 Y174.848 E6.71012
G1 X155.573 Y175.095 E6.74036
G1 X154.608 Y175.32 E6.77331
G1 X153.714 Y175.449 E6.80336
G1 X152.792 Y175.505 E6.83408
G1 X150.214 Y175.552 E6.91984
G1 X147.716 Y175.664 E7.00301
G1 X146.725 Y175.66 E7.03597
G1 X145.783 Y175.575 E7.06743
G1 X144.447 Y175.314 E7.1127
G1 X143.716 Y175.112 E7.13793
G1 X142.916 Y174.866 E7.16576
G1 X140.39 Y174.125 E7.25332
G1 X138.009 Y173.5 E7.33519
G1 X135.523 Y172.922 E7.42008
G1 X133.04 Y172.418 E7.50435
G1 X130.6 Y171.994 E7.58672
G1 X128.077 Y171.628 E7.67152
G1 X125.576 Y171.338 E7.75526
G1 X123.104 Y171.122 E7.83779
G1 X120.585 Y170.973 E7.92172
G1 X118.061 Y170.897 E8.00571
G1 X115.563 Y170.89 E8.08879
G1 X113.006 Y170.956 E8.17386
G1 X110.509 Y171.091 E8.25704
G1 X108.029 Y171.297 E8.33981
G1 X105.499 Y171.579 E8.42447
G1 X102.983 Y171.93 E8.50897
G1 X100.53 Y172.345 E8.59171
G1 X98.061 Y172.834 E8.67543
G1 X95.607 Y173.393 E8.75914
G1 X93.171 Y174.021 E8.84281
G1 X90.775 Y174.705 E8.92569
G1 X90.376 Y174.81 E8.93941
G1 X89.423 Y175.015 E8.97183
G1 X88.451 Y175.135 E9.0044
G1 X87.317 Y175.167 E9.04214
G1 X86.491 Y175.147 E9.06962
G1 X84.035 Y175.119 E9.15131
G1 X82.685 Y175.122 E9.19621
G1 X81.64 Y175.071 E9.23101
G1 X81.2 Y175.027 E9.24572
G1 X80.306 Y174.898 E9.27576
G1 X79.483 Y174.713 E9.30382
G1 X78.848 Y174.537 E9.32573
G1 X78.284 Y174.364 E9.34535
G1 X77.382 Y174.044 E9.37719
G1 X76.465 Y173.622 E9.41076
G1 X75.621 Y173.138 E9.44312
G1 X74.848 Y172.599 E9.47446
G1 X73.919 Y171.808 E9.51504
G1 X73.384 Y171.287 E9.53988
G1 X72.966 Y170.857 E9.55983
G1 X72.341 Y170.156 E9.59106
G1 X71.74 Y169.345 E9.62464
G1 X71.233 Y168.515 E9.65699
G1 X70.815 Y167.673 E9.68825
G1 X70.416 Y166.642 E9.72502
G1 X70.2 Y165.949 E9.74917
G1 X70.023 Y165.318 E9.77096
G1 X69.769 Y164.163 E9.8103
G1 X69.569 Y162.91 E9.8525
G1 X69.122 Y160.343 E9.93916
G1 X68.627 Y157.916 E10.02155
G1 X68.061 Y155.482 E10.10466
G1 X67.075 Y151.823 E10.2307
G1 X66.934 Y151.338 E10.2475
G1 X66.708 Y150.393 E10.27982
G1 X66.573 Y149.5 E10.30986
G1 X66.513 Y148.615 E10.33936
G1 X66.5 Y147.991 E10.36012
G1 X66.501 Y104.036 E11.82207
G1 X66.514 Y103.294 E11.84675
G1 X66.576 Y102.316 E11.87934
G1 X66.755 Y101.197 E11.91703
G1 X66.979 Y100.153 E11.95255
G1 X67.485 Y97.627 E12.03823
G1 X67.913 Y95.125 E12.12266
G1 X68.261 Y92.674 E12.205
G1 X68.546 Y90.153 E12.28938
G1 X68.758 Y87.672 E12.3722
G1 X68.9 Y85.14 E12.45655
G1 X68.971 Y82.625 E12.54023
G1 X68.959 Y79.287 E12.65125
G1 X68.983 Y78.385 E12.68126
G1 X69.098 Y77.377 E12.71501
G1 X69.38 Y76.102 E12.75844
G1 X69.604 Y75.322 E12.78543
G1 X69.922 Y74.383 E12.8184
G1 X70.314 Y73.491 E12.85081
G1 X70.769 Y72.663 E12.88223
G1 X71.515 Y71.584 E12.92586
G1 X72.263 Y70.632 E12.96613
G1 X74.275 Y67.997 E13.0764
G1 X74.368 Y67.886 E13.08122
G0 F1080 X74.88 Y67.272
G0 F6000 X75.173 Y67.545
G1 F1200 X75.638 Y67.046 E13.1039
G1 X75.993 Y66.685 E13.12074
G1 X76.68 Y66.046 E13.15195
G1 X77.421 Y65.469 E13.18318
G1 X78.21 Y64.96 E13.21441
G1 X79.04 Y64.524 E13.2456
G1 X79.905 Y64.163 E13.27677
G1 X80.675 Y63.914 E13.30369
G1 X81.469 Y63.691 E13.33112
G1 X82.384 Y63.477 E13.36237
G1 X83.319 Y63.346 E13.39377
G1 X84.569 Y63.3 E13.43538
G1 X86.555 Y63.344 E13.50145
G1 X89.064 Y63.352 E13.5849
G1 X91.596 Y63.29 E13.66914
G1 X94.113 Y63.156 E13.75297
G1 X96.64 Y62.951 E13.8373
G1 X99.178 Y62.671 E13.92222
G1 X101.677 Y62.324 E14.00614
G1 X104.155 Y61.908 E14.08971
G1 X106.403 Y61.469 E14.16589
G1 X107.181 Y61.308 E14.19231
G1 X108.109 Y61.159 E14.22358
G1 X109.135 Y61.091 E14.25778
G1 X109.878 Y61.079 E14.28249
G1 X124.976 Y61.079 E14.78465
G1 X125.84 Y61.091 E14.81339
G1 X126.782 Y61.148 E14.84478
G1 X127.894 Y61.325 E14.88223
G1 X128.96 Y61.554 E14.9185
G1 X129.658 Y61.715 E14.94232
G1 X132.131 Y62.213 E15.02622
G1 X134.637 Y62.644 E15.1108
G1 X137.129 Y63.001 E15.19453
G1 X139.635 Y63.288 E15.27842
G1 X142.193 Y63.509 E15.36382
G1 X144.662 Y63.65 E15.44607
G1 X147.24 Y63.724 E15.53185
G1 X149.702 Y63.731 E15.61374
G1 X150.605 Y63.773 E15.64381
G1 X151.568 Y63.905 E15.67613
G1 X152.423 Y64.099 E15.70529
G1 X153.32 Y64.342 E15.7362
G1 X154.214 Y64.628 E15.76742
G1 X155.079 Y64.992 E15.79864
G1 X155.878 Y65.414 E15.82869
G1 X156.4 Y65.739 E15.84914
G1 X158.986 Y67.457 E15.9524
G1 X160.234 Y68.255 E16.00167
G1 X161.001 Y68.796 E16.03289
G1 X161.712 Y69.398 E16.06388
G1 X162.093 Y69.769 E16.08156
G1 X162.618 Y70.314 E16.10673
G1 X162.895 Y70.616 E16.12036
G1 X163.496 Y71.336 E16.15156
G1 X164.032 Y72.107 E16.18279
G1 X164.497 Y72.922 E16.214
G1 X164.889 Y73.775 E16.24522
G1 X165.195 Y74.63 E16.27542
G1 X165.389 Y75.276 E16.29786
G1 X165.514 Y75.736 E16.31371
G1 X165.719 Y76.652 E16.34493
G1 X165.843 Y77.587 E16.3763
G1 X165.881 Y78.784 E16.41614
G1 X165.824 Y81.004 E16.49
G1 X165.824 Y83.529 E16.57398
G1 X165.896 Y86.062 E16.65826
G1 X166.038 Y88.584 E16.74228
G1 X166.251 Y91.097 E16.82616
G1 X166.539 Y93.629 E16.91092
G1 X166.889 Y96.091 E16.99363
G1 X167.323 Y98.629 E17.07927
G1 X167.87 Y101.358 E17.17184
G1 X168.019 Y102.287 E17.20313
G1 X168.088 Y103.316 E17.23743
G1 X168.1 Y104.063 E17.26228
G1 X168.099 Y147.769 E18.71595
G1 X168.086 Y148.52 E18.74093
G1 X168.028 Y149.456 E18.77212
G1 X167.894 Y150.349 E18.80216
G1 X167.705 Y151.15 E18.82953
G1 X167.495 Y151.909 E18.85572
G1 X167.097 Y153.279 E18.90317
G1 X166.456 Y155.745 E18.98792
G1 X165.883 Y158.238 E19.073
G1 X165.395 Y160.674 E19.15563
G1 X164.932 Y163.4 E19.24759
G1 X164.769 Y164.448 E19.28287
G1 X164.571 Y165.413 E19.31563
G1 X164.393 Y166.087 E19.33882
G1 X164.225 Y166.655 E19.35852
G1 X163.919 Y167.542 E19.38973
G1 X163.537 Y168.398 E19.42091
G1 X163.079 Y169.219 E19.45217
G1 X162.551 Y169.994 E19.48336
G1 X161.98 Y170.694 E19.51341
G1 X161.593 Y171.106 E19.53221
G1 X160.97 Y171.735 E19.56166
G1 X160.28 Y172.37 E19.59284
G1 X159.536 Y172.943 E19.62408
G1 X158.745 Y173.447 E19.65527
G1 X157.911 Y173.88 E19.68653
G1 X157.047 Y174.235 E19.7176
G1 X156.339 Y174.463 E19.74234
G1 X155.464 Y174.71 E19.77258
G1 X154.551 Y174.924 E19.80376
G1 X153.657 Y175.053 E19.83381
G1 X152.785 Y175.105 E19.86286
G1 X150.196 Y175.152 E19.94899
G1 X147.717 Y175.264 E20.03152
G1 X146.761 Y175.262 E20.06332
G1 X145.819 Y175.177 E20.09478
G1 X144.553 Y174.928 E20.13769
G1 X143.834 Y174.73 E20.1625
G1 X143.029 Y174.482 E20.19051
G1 X140.503 Y173.741 E20.27807
G1 X138.1 Y173.11 E20.3607
G1 X135.614 Y172.532 E20.44559
G1 X133.12 Y172.026 E20.53023
G1 X130.657 Y171.598 E20.61338
G1 X128.134 Y171.232 E20.69817
G1 X125.622 Y170.941 E20.78228
G1 X123.128 Y170.723 E20.86555
G1 X120.597 Y170.573 E20.94988
G1 X118.073 Y170.497 E21.03386
G1 X115.554 Y170.49 E21.11765
G1 X112.996 Y170.556 E21.20275
G1 X110.476 Y170.693 E21.28669
G1 X107.988 Y170.899 E21.36973
G1 X105.455 Y171.181 E21.4545
G1 X102.928 Y171.534 E21.53936
G1 X100.457 Y171.952 E21.62271
G1 X97.972 Y172.444 E21.70697
G1 X95.518 Y173.003 E21.79068
G1 X93.061 Y173.636 E21.87507
G1 X90.673 Y174.318 E21.95767
G1 X90.291 Y174.419 E21.97081
G1 X89.373 Y174.618 E22.00205
G1 X88.439 Y174.735 E22.03336
G1 X87.327 Y174.767 E22.07036
G1 X86.501 Y174.747 E22.09784
G1 X84.039 Y174.719 E22.17974
G1 X82.704 Y174.722 E22.22414
G1 X81.68 Y174.673 E22.25824
G1 X81.257 Y174.631 E22.27237
G1 X80.363 Y174.502 E22.30242
G1 X79.59 Y174.327 E22.32878
G1 X78.965 Y174.154 E22.35035
G1 X78.418 Y173.987 E22.36937
G1 X77.516 Y173.667 E22.4012
G1 X76.664 Y173.275 E22.43239
G1 X75.849 Y172.809 E22.46362
G1 X75.107 Y172.294 E22.49366
G1 X74.198 Y171.521 E22.53335
G1 X73.671 Y171.008 E22.55781
G1 X73.265 Y170.591 E22.57717
G1 X72.64 Y169.89 E22.6084
G1 X72.081 Y169.136 E22.63962
G1 X71.591 Y168.336 E22.67082
G1 X71.188 Y167.528 E22.70086
G1 X70.798 Y166.523 E22.73671
G1 X70.585 Y165.841 E22.76047
G1 X70.414 Y165.232 E22.78151
G1 X70.16 Y164.077 E22.82085
G1 X69.964 Y162.847 E22.86227
G1 X69.516 Y160.274 E22.94914
G1 X69.017 Y157.825 E23.03227
G1 X68.451 Y155.391 E23.11538
G1 X67.461 Y151.719 E23.24187
G1 X67.323 Y151.245 E23.25829
G1 X67.104 Y150.333 E23.28949
G1 X66.969 Y149.44 E23.31953
G1 X66.913 Y148.607 E23.3473
G1 X66.9 Y147.991 E23.36779
G1 X66.901 Y104.043 E24.82951
G1 X66.913 Y103.319 E24.85359
G1 X66.971 Y102.379 E24.88491
G1 X67.146 Y101.281 E24.92189
G1 X67.37 Y100.237 E24.95741
G1 X67.877 Y97.706 E25.04326
G1 X68.307 Y95.192 E25.12809
G1 X68.657 Y92.73 E25.2108
G1 X68.945 Y90.187 E25.29592
G1 X69.156 Y87.706 E25.37874
G1 X69.3 Y85.151 E25.46385
G1 X69.371 Y82.636 E25.54754
G1 X69.359 Y79.298 E25.65856
G1 X69.383 Y78.396 E25.68857
G1 X69.489 Y77.463 E25.7198
G1 X69.765 Y76.212 E25.76241
G1 X69.983 Y75.45 E25.78877
G1 X70.288 Y74.544 E25.82057
G1 X70.665 Y73.684 E25.8518
G1 X71.12 Y72.856 E25.88322
G1 X71.83 Y71.831 E25.92469
G1 X72.578 Y70.879 E25.96496
G1 X74.582 Y68.253 E26.07483
G1 X74.661 Y68.159 E26.07891
G0 F1080 X75.173 Y67.545
G0 F6000 X75.466 Y67.818
G1 F1200 X74.889 Y68.509 E26.10886
G1 X72.896 Y71.122 E26.21816
G1 X72.159 Y72.059 E26.25781
G1 X71.449 Y73.084 E26.29928
G1 X71.016 Y73.876 E26.3293
G1 X70.655 Y74.704 E26.35935
G1 X70.368 Y75.56 E26.38937
G1 X70.15 Y76.322 E26.41573
G1 X69.886 Y77.509 E26.45618
G1 X69.783 Y78.407 E26.48624
G1 X69.759 Y79.309 E26.51625
G1 X69.771 Y82.647 E26.62728
G1 X69.7 Y85.162 E26.71096
G1 X69.554 Y87.74 E26.79684
G1 X69.344 Y90.221 E26.87965
G1 X69.053 Y92.786 E26.96551
G1 X68.701 Y95.259 E27.0486
G1 X68.269 Y97.785 E27.13383
G1 X67.761 Y100.321 E27.21985
G1 X67.537 Y101.365 E27.25537
G1 X67.366 Y102.442 E27.29164
G1 X67.312 Y103.343 E27.32166
G1 X67.301 Y104.049 E27.34514
G1 X67.3 Y147.991 E28.80666
G1 X67.313 Y148.598 E28.82685
G1 X67.365 Y149.38 E28.85292
G1 X67.5 Y150.273 E28.88296
G1 X67.712 Y151.151 E28.913
G1 X67.847 Y151.615 E28.92907
G1 X68.841 Y155.3 E29.05602
G1 X69.407 Y157.734 E29.13913
G1 X69.91 Y160.205 E29.223
G1 X70.359 Y162.784 E29.31007
G1 X70.551 Y163.991 E29.35072
G1 X70.805 Y165.146 E29.39006
G1 X70.97 Y165.733 E29.41034
G1 X71.18 Y166.403 E29.43369
G1 X71.546 Y167.349 E29.46743
G1 X71.949 Y168.157 E29.49746
G1 X72.422 Y168.926 E29.52749
G1 X72.961 Y169.651 E29.55753
G1 X73.563 Y170.325 E29.58759
G1 X73.957 Y170.729 E29.60636
G1 X74.477 Y171.234 E29.63047
G1 X75.335 Y171.965 E29.66796
G1 X76.077 Y172.48 E29.698
G1 X76.862 Y172.927 E29.72804
G1 X77.683 Y173.303 E29.75808
G1 X78.535 Y173.604 E29.78813
G1 X79.082 Y173.771 E29.80716
G1 X79.697 Y173.942 E29.82839
G1 X80.42 Y174.106 E29.85304
G1 X81.314 Y174.235 E29.88309
G1 X81.699 Y174.273 E29.89595
G1 X82.723 Y174.322 E29.93005
G1 X84.043 Y174.319 E29.97395
G1 X86.511 Y174.347 E30.05605
G1 X87.337 Y174.367 E30.08353
G1 X88.427 Y174.335 E30.1198
G1 X89.323 Y174.221 E30.14984
G1 X90.205 Y174.028 E30.17987
G1 X90.57 Y173.931 E30.19243
G1 X92.951 Y173.251 E30.27479
G1 X95.429 Y172.613 E30.35989
G1 X97.883 Y172.054 E30.4436
G1 X100.384 Y171.559 E30.5284
G1 X102.873 Y171.138 E30.61236
G1 X105.411 Y170.783 E30.6976
G1 X107.947 Y170.501 E30.78247
G1 X110.443 Y170.295 E30.86577
G1 X112.986 Y170.156 E30.95047
G1 X115.545 Y170.09 E31.03561
G1 X118.085 Y170.097 E31.12009
G1 X120.609 Y170.173 E31.20408
G1 X123.152 Y170.324 E31.28881
G1 X125.668 Y170.544 E31.37281
G1 X128.191 Y170.836 E31.45729
G1 X130.717 Y171.202 E31.54218
G1 X133.189 Y171.632 E31.62563
G1 X135.705 Y172.142 E31.71102
G1 X138.191 Y172.72 E31.79591
G1 X140.616 Y173.357 E31.8793
G1 X143.142 Y174.098 E31.96686
G1 X143.952 Y174.348 E31.99505
G1 X144.659 Y174.542 E32.01943
G1 X145.896 Y174.785 E32.06136
G1 X146.796 Y174.864 E32.09141
G1 X147.699 Y174.864 E32.12145
G1 X150.178 Y174.752 E32.20398
G1 X152.778 Y174.705 E32.29047
G1 X153.6 Y174.657 E32.31786
G1 X154.494 Y174.528 E32.3479
G1 X155.372 Y174.321 E32.37791
G1 X156.23 Y174.078 E32.40756
G1 X156.924 Y173.854 E32.43182
G1 X157.759 Y173.51 E32.46186
G1 X158.56 Y173.092 E32.49191
G1 X159.321 Y172.606 E32.52194
G1 X160.035 Y172.054 E32.55196
