;FLAVOR:Marlin
;TIME:3235
;Filament used: 2.60168m
;Layer height: 0.2
;MINX:101.5
;MINY:51.5
;MINZ:0.2
;MAXX:153.5
;MAXY:143.5
;MAXZ:10
;TARGET_MACHINE.NAME:BIQU B1
;Generated with Cura_SteamEngine 5.8.1
M82 ;absolute extrusion mode
                                 ; BIQU B1 Start G-code
M117 Getting the bed up to temp!
M140 S60      ; Set Heat Bed temperature
M190 S60      ; Wait for Heat Bed temperature
M117 Getting the extruder up to temp!
M104 S180    ; Set Extruder temperature
G92 E0                           ; Reset Extruder
M117 Homing axes
G28                              ; Home all axes
M109 S180    ; Wait for Extruder temperature
G1 Z2.0 F3000                    ; Move Z Axis up little to prevent scratching of Heat Bed
G1 X4.1 Y20 Z0.3 F5000.0         ; Move to start position
M117 Purging
G1 X4.1 Y200.0 Z0.3 F1500.0 E15  ; Draw the first line
G1 X4.4 Y200.0 Z0.3 F5000.0      ; Move to side a little
G1 X4.4 Y20 Z0.3 F1500.0 E30     ; Draw the second line
G92 E0                           ; Reset Extruder
M117 Lets make
G1 Z2.0 F3000                    ; Move Z Axis up little to prevent scratching of Heat Bed
G1 X5 Y20 Z0.3 F5000.0           ; Move over to prevent blob squish
G92 E0
G92 E0
G1 F4200 E-7
;LAYER_COUNT:50
;LAYER:0
M107
G0 F6000 X103.121 Y56.777 Z0.2
;TYPE:SKIRT
G1 F4200 E0
G1 F1200 X103.664 Y55.969 E0.03238
G1 X104.231 Y55.265 E0.06244
G1 X104.956 Y54.513 E0.09719
G1 X105.692 Y53.876 E0.12956
G1 X106.424 Y53.346 E0.15962
G1 X107.321 Y52.811 E0.19436
G1 X108.199 Y52.39 E0.22674
G1 X109.112 Y52.048 E0.25917
G1 X110.049 Y51.789 E0.2915
G1 X111.016 Y51.611 E0.32421
G1 X112.155 Y51.515 E0.36222
G1 X112.812 Y51.5 E0.38408
G1 X121.807 Y51.5 E0.68326
G1 X122.979 Y51.519 E0.72224
G1 X123.667 Y51.548 E0.74515
G1 X126.259 Y51.622 E0.83139
G1 X128.746 Y51.622 E0.91411
G1 X132.83 Y51.5 E1.05
G1 X141.951 Y51.501 E1.35337
G1 X142.684 Y51.513 E1.37775
G1 X143.656 Y51.572 E1.41014
G1 X144.619 Y51.718 E1.44254
G1 X145.566 Y51.949 E1.47496
G1 X146.454 Y52.249 E1.50613
G1 X147.346 Y52.639 E1.53851
G1 X148.229 Y53.126 E1.57205
G1 X148.98 Y53.628 E1.6021
G1 X149.795 Y54.286 E1.63694
G1 X150.493 Y54.964 E1.6693
G1 X151.129 Y55.701 E1.70168
G1 X151.699 Y56.491 E1.73408
G1 X152.161 Y57.267 E1.76412
G1 X152.615 Y58.209 E1.7989
G1 X152.944 Y59.087 E1.83008
G1 X153.213 Y60.059 E1.86363
G1 X153.39 Y61.025 E1.89629
G1 X153.485 Y62.155 E1.93401
G1 X153.5 Y62.83 E1.95646
G1 X153.499 Y91.929 E2.9243
G1 X153.481 Y92.96 E2.9586
G1 X153.452 Y93.643 E2.98133
G1 X153.378 Y96.259 E3.06838
G1 X153.378 Y98.771 E3.15193
G1 X153.5 Y102.83 E3.28699
G1 X153.499 Y131.9 E4.25386
G1 X153.488 Y132.663 E4.27924
G1 X153.431 Y133.636 E4.31166
G1 X153.286 Y134.599 E4.34405
G1 X153.057 Y135.545 E4.37642
G1 X152.746 Y136.469 E4.40885
G1 X152.354 Y137.36 E4.44123
G1 X151.886 Y138.212 E4.47356
G1 X151.364 Y138.993 E4.5048
G1 X150.731 Y139.778 E4.53834
G1 X150.106 Y140.429 E4.56836
G1 X149.317 Y141.117 E4.60318
G1 X148.557 Y141.667 E4.63438
G1 X147.69 Y142.184 E4.66795
G1 X146.812 Y142.606 E4.70035
G1 X145.901 Y142.948 E4.73272
G1 X144.962 Y143.209 E4.76513
G1 X143.996 Y143.387 E4.7978
G1 X142.845 Y143.485 E4.83622
G1 X142.17 Y143.5 E4.85868
G1 X133.051 Y143.499 E5.16198
G1 X132.022 Y143.481 E5.19621
G1 X131.333 Y143.452 E5.21915
G1 X128.741 Y143.378 E5.30539
G1 X126.254 Y143.378 E5.38811
G1 X122.17 Y143.5 E5.524
G1 X113.064 Y143.499 E5.82687
G1 X112.331 Y143.488 E5.85125
G1 X111.359 Y143.431 E5.88364
G1 X110.396 Y143.285 E5.91603
G1 X109.45 Y143.056 E5.94841
G1 X108.526 Y142.744 E5.98084
G1 X107.636 Y142.352 E6.01319
G1 X106.813 Y141.901 E6.0444
G1 X105.974 Y141.34 E6.07797
G1 X105.27 Y140.774 E6.10802
G1 X104.517 Y140.049 E6.14278
G1 X103.88 Y139.313 E6.17516
G1 X103.35 Y138.582 E6.20519
G1 X102.814 Y137.685 E6.23994
G1 X102.392 Y136.807 E6.27234
G1 X102.05 Y135.895 E6.30474
G1 X101.79 Y134.957 E6.33711
G1 X101.612 Y133.988 E6.36988
G1 X101.514 Y132.809 E6.40923
G1 X101.5 Y132.158 E6.43089
G1 X101.501 Y103.051 E7.39899
G1 X101.519 Y102.022 E7.43322
G1 X101.549 Y101.316 E7.45672
G1 X101.622 Y98.741 E7.5424
G1 X101.622 Y96.229 E7.62595
G1 X101.5 Y92.17 E7.76102
G1 X101.501 Y63.025 E8.73038
G1 X101.512 Y62.325 E8.75367
G1 X101.57 Y61.352 E8.78609
G1 X101.716 Y60.389 E8.81848
G1 X101.946 Y59.443 E8.85086
G1 X102.259 Y58.52 E8.88328
G1 X102.651 Y57.63 E8.91562
G1 X102.735 Y57.477 E8.92143
G0 F1080 X103.121 Y56.777
G0 F6000 X103.453 Y57
G1 F1200 X103.976 Y56.22 E8.95267
G1 X104.543 Y55.516 E8.98273
G1 X105.218 Y54.815 E9.0151
G1 X105.927 Y54.2 E9.04631
G1 X106.659 Y53.67 E9.07637
G1 X107.495 Y53.171 E9.10875
G1 X108.34 Y52.764 E9.13995
G1 X109.219 Y52.433 E9.17119
G1 X110.122 Y52.182 E9.20236
G1 X111.05 Y52.01 E9.23375
G1 X112.189 Y51.914 E9.27177
G1 X112.821 Y51.9 E9.2928
G1 X121.8 Y51.9 E9.59144
G1 X122.962 Y51.919 E9.63009
G1 X123.65 Y51.948 E9.653
G1 X126.248 Y52.022 E9.73944
G1 X128.758 Y52.022 E9.82292
G1 X132.83 Y51.9 E9.95842
G1 X141.945 Y51.901 E10.26159
G1 X142.66 Y51.912 E10.28537
G1 X143.597 Y51.968 E10.31659
G1 X144.525 Y52.107 E10.3478
G1 X145.438 Y52.328 E10.37904
G1 X146.294 Y52.616 E10.40908
G1 X147.186 Y53.006 E10.44146
G1 X148.007 Y53.459 E10.47265
G1 X148.758 Y53.961 E10.50269
G1 X149.517 Y54.573 E10.53512
G1 X150.191 Y55.226 E10.56634
G1 X150.805 Y55.935 E10.59753
G1 X151.355 Y56.696 E10.62876
G1 X151.817 Y57.472 E10.6588
G1 X152.24 Y58.349 E10.69118
G1 X152.569 Y59.227 E10.72237
G1 X152.82 Y60.132 E10.7536
G1 X152.991 Y61.059 E10.78496
G1 X153.086 Y62.189 E10.82267
G1 X153.1 Y62.83 E10.844
G1 X153.099 Y91.922 E11.8116
G1 X153.081 Y92.943 E11.84557
G1 X153.052 Y93.626 E11.8683
G1 X152.978 Y96.248 E11.95555
G1 X152.978 Y98.771 E12.03946
G1 X153.1 Y102.83 E12.17453
G1 X153.099 Y131.895 E13.14123
G1 X153.089 Y132.64 E13.16601
G1 X153.035 Y133.577 E13.19723
G1 X152.897 Y134.506 E13.22847
G1 X152.678 Y135.418 E13.25966
G1 X152.38 Y136.308 E13.29088
G1 X152.003 Y137.168 E13.32211
G1 X151.553 Y137.99 E13.35328
G1 X151.031 Y138.771 E13.38452
G1 X150.442 Y139.501 E13.41572
G1 X149.817 Y140.152 E13.44574
G1 X149.082 Y140.793 E13.47817
G1 X148.322 Y141.343 E13.50938
G1 X147.516 Y141.824 E13.54059
G1 X146.671 Y142.232 E13.5718
G1 X145.793 Y142.563 E13.60301
G1 X144.889 Y142.816 E13.63423
G1 X143.962 Y142.988 E13.66559
G1 X142.811 Y143.086 E13.70401
G1 X142.17 Y143.1 E13.72534
G1 X133.058 Y143.099 E14.0284
G1 X132.039 Y143.081 E14.0623
G1 X131.35 Y143.052 E14.08524
G1 X128.752 Y142.978 E14.17168
G1 X126.242 Y142.978 E14.25517
G1 X122.17 Y143.1 E14.39066
G1 X113.07 Y143.099 E14.69333
G1 X112.354 Y143.089 E14.71715
G1 X111.418 Y143.035 E14.74833
G1 X110.489 Y142.896 E14.77957
G1 X109.577 Y142.677 E14.81077
G1 X108.687 Y142.378 E14.842
G1 X107.828 Y142.001 E14.8732
G1 X107.005 Y141.55 E14.90441
G1 X106.225 Y141.028 E14.93563
G1 X105.521 Y140.462 E14.96567
G1 X104.819 Y139.787 E14.99806
G1 X104.204 Y139.078 E15.02928
G1 X103.674 Y138.347 E15.05931
G1 X103.174 Y137.511 E15.09171
G1 X102.766 Y136.666 E15.12292
G1 X102.435 Y135.788 E15.15413
G1 X102.183 Y134.884 E15.18534
G1 X102.011 Y133.955 E15.21676
G1 X101.913 Y132.776 E15.25611
G1 X101.9 Y132.158 E15.27667
G1 X101.901 Y103.058 E16.24454
G1 X101.919 Y102.039 E16.27844
G1 X101.949 Y101.333 E16.30194
G1 X102.022 Y98.752 E16.38782
G1 X102.022 Y96.229 E16.47174
G1 X101.9 Y92.17 E16.6068
G1 X101.901 Y63.031 E17.57597
G1 X101.911 Y62.348 E17.59869
G1 X101.966 Y61.411 E17.62991
G1 X102.105 Y60.483 E17.66111
G1 X102.325 Y59.571 E17.69232
G1 X102.625 Y58.681 E17.72356
G1 X103.002 Y57.822 E17.75476
G1 X103.069 Y57.701 E17.75936
G0 F1080 X103.453 Y57
G0 F6000 X103.786 Y57.222
G1 F1200 X104.288 Y56.471 E17.7894
G1 X104.855 Y55.767 E17.81947
G1 X105.481 Y55.117 E17.84948
G1 X106.162 Y54.524 E17.87952
G1 X106.894 Y53.994 E17.90957
G1 X107.669 Y53.531 E17.9396
G1 X108.482 Y53.138 E17.96963
G1 X109.327 Y52.818 E17.99969
G1 X110.196 Y52.575 E18.0297
G1 X111.084 Y52.409 E18.05975
G1 X112.223 Y52.313 E18.09776
G1 X112.83 Y52.3 E18.11796
G1 X121.793 Y52.3 E18.41607
G1 X122.945 Y52.319 E18.45439
G1 X123.633 Y52.348 E18.47729
G1 X126.237 Y52.422 E18.56394
G1 X128.77 Y52.422 E18.64818
G1 X132.83 Y52.3 E18.78328
G1 X141.939 Y52.301 E19.08625
G1 X142.637 Y52.311 E19.10947
G1 X143.539 Y52.364 E19.13952
G1 X144.432 Y52.496 E19.16954
G1 X145.31 Y52.707 E19.19958
G1 X146.166 Y52.995 E19.22961
G1 X146.993 Y53.357 E19.25964
G1 X147.785 Y53.792 E19.28969
G1 X148.536 Y54.294 E19.31974
G1 X149.239 Y54.861 E19.34978
G1 X149.889 Y55.488 E19.37982
G1 X150.481 Y56.17 E19.40985
G1 X151.011 Y56.901 E19.43988
G1 X151.473 Y57.677 E19.46992
G1 X151.866 Y58.49 E19.49996
G1 X152.184 Y59.335 E19.52999
G1 X152.427 Y60.205 E19.56003
G1 X152.592 Y61.093 E19.59007
G1 X152.687 Y62.223 E19.62779
G1 X152.7 Y62.83 E19.64798
G1 X152.699 Y91.915 E20.61535
G1 X152.681 Y92.926 E20.64898
G1 X152.652 Y93.609 E20.67172
G1 X152.578 Y96.237 E20.75916
G1 X152.578 Y98.771 E20.84344
G1 X152.7 Y102.83 E20.97851
G1 X152.699 Y131.89 E21.94505
G1 X152.69 Y132.617 E21.96923
G1 X152.639 Y133.519 E21.99928
G1 X152.508 Y134.413 E22.02933
G1 X152.299 Y135.291 E22.05935
G1 X152.013 Y136.148 E22.0894
G1 X151.652 Y136.976 E22.11944
G1 X151.22 Y137.768 E22.14945
G1 X150.719 Y138.52 E22.1795
G1 X150.153 Y139.224 E22.20954
G1 X149.528 Y139.875 E22.23956
G1 X148.847 Y140.469 E22.26962
G1 X148.116 Y141 E22.29967
G1 X147.342 Y141.464 E22.32968
G1 X146.529 Y141.858 E22.35973
G1 X145.685 Y142.178 E22.38975
G1 X144.815 Y142.423 E22.41981
G1 X143.928 Y142.589 E22.44983
G1 X142.777 Y142.687 E22.48825
G1 X142.17 Y142.7 E22.50844
G1 X133.065 Y142.699 E22.81127
G1 X132.056 Y142.681 E22.84484
G1 X131.367 Y142.652 E22.86778
G1 X128.763 Y142.578 E22.95442
G1 X126.23 Y142.578 E23.03867
G1 X122.17 Y142.7 E23.17377
G1 X113.075 Y142.699 E23.47627
G1 X112.377 Y142.69 E23.49948
G1 X111.476 Y142.639 E23.5295
G1 X110.582 Y142.507 E23.55956
G1 X109.704 Y142.298 E23.58957
G1 X108.847 Y142.011 E23.61963
G1 X108.02 Y141.65 E23.64965
G1 X107.227 Y141.217 E23.6797
G1 X106.476 Y140.716 E23.70972
G1 X105.772 Y140.15 E23.73977
G1 X105.121 Y139.524 E23.76981
G1 X104.528 Y138.843 E23.79984
G1 X103.998 Y138.112 E23.82987
G1 X103.534 Y137.337 E23.85992
G1 X103.14 Y136.524 E23.88996
G1 X102.82 Y135.68 E23.91999
G1 X102.576 Y134.81 E23.95004
G1 X102.41 Y133.922 E23.98009
G1 X102.313 Y132.767 E24.01864
G1 X102.3 Y132.158 E24.0389
G1 X102.301 Y103.065 E25.00653
G1 X102.319 Y102.056 E25.0401
G1 X102.349 Y101.35 E25.0636
G1 X102.422 Y98.763 E25.14968
G1 X102.422 Y96.229 E25.23396
G1 X102.3 Y92.17 E25.36902
G1 X102.301 Y63.036 E26.33802
G1 X102.31 Y62.371 E26.36015
G1 X102.362 Y61.469 E26.3902
G1 X102.494 Y60.576 E26.42022
G1 X102.704 Y59.698 E26.45025
G1 X102.991 Y58.841 E26.48031
G1 X103.353 Y58.014 E26.51033
G1 X103.403 Y57.923 E26.51378
G0 F1080 X103.786 Y57.222
G1 F4200 E19.51378
;MESH:support2.STL(2)
G0 F6000 X111.835 Y62.914
G0 X112.914 Y62.914
G0 X113.672 Y91.328
G0 X121.5 Y91.5
;TYPE:WALL-INNER
G1 F4200 E26.51378
G1 F1200 X121.5 Y63.5 E27.44507
G1 X113.5 Y63.5 E27.71115
G1 X113.5 Y91.5 E28.64243
G1 X120.7 Y91.5 E28.88191
G0 F1080 X121.5 Y91.5
G0 F6000 X121.9 Y91.9
G1 F1200 X121.9 Y63.1 E29.8398
G1 X113.1 Y63.1 E30.13249
G1 X113.1 Y91.9 E31.09038
G1 X121.1 Y91.9 E31.35646
G0 F1080 X121.9 Y91.9
G0 F6000 X122.3 Y92.3
;TYPE:WALL-OUTER
G1 F1200 X122.3 Y62.7 E32.34096
G1 X112.7 Y62.7 E32.66026
G1 X112.7 Y92.3 E33.64476
G1 X121.5 Y92.3 E33.93745
G0 F1080 X122.3 Y92.3
G0 F6000 X122.03 Y92.03
G0 X121.4 Y91.14
G0 X121.14 Y91.14
;TYPE:SKIN
G1 F1200 X113.86 Y91.14 E34.17958
G1 X113.86 Y63.86 E35.08692
G1 X121.14 Y63.86 E35.32905
G1 X121.14 Y90.34 E36.20978
G0 F1080 X121.14 Y91.14
G0 F6000 X121.4 Y91.14
G0 X113.672 Y91.328
G0 X113.6 Y90.867
G0 X114.06 Y90.867
G1 F1200 X114.133 Y90.94 E36.21321
G0 F6000 X114.699 Y90.94
G1 F1200 X114.06 Y90.301 E36.24327
G0 F6000 X114.06 Y89.735
G1 F1200 X115.265 Y90.94 E36.29995
G0 F6000 X115.83 Y90.94
G1 F1200 X114.06 Y89.17 E36.3832
G0 F6000 X114.06 Y88.604
G1 F1200 X116.396 Y90.94 E36.49308
G0 F6000 X116.962 Y90.94
G1 F1200 X114.06 Y88.038 E36.62958
G0 F6000 X114.06 Y87.473
G1 F1200 X117.528 Y90.94 E36.79268
G0 F6000 X118.093 Y90.94
G1 F1200 X114.06 Y86.907 E36.98238
G0 F6000 X114.06 Y86.341
G1 F1200 X118.659 Y90.94 E37.19871
G0 F6000 X119.225 Y90.94
G1 F1200 X114.06 Y85.776 E37.44163
G0 F6000 X114.06 Y85.21
G1 F1200 X119.79 Y90.94 E37.71115
G0 F6000 X120.356 Y90.94
G1 F1200 X114.06 Y84.644 E38.0073
G0 F6000 X114.06 Y84.079
G1 F1200 X120.922 Y90.94 E38.33004
G0 F6000 X120.94 Y90.393
G1 F1200 X114.06 Y83.513 E38.65365
G0 F6000 X114.06 Y82.947
G1 F1200 X120.94 Y89.827 E38.97727
G0 F6000 X120.94 Y89.262
G1 F1200 X114.06 Y82.381 E39.30091
G0 F6000 X114.06 Y81.816
G1 F1200 X120.94 Y88.696 E39.62452
G0 F6000 X120.94 Y88.13
G1 F1200 X114.06 Y81.25 E39.94813
G0 F6000 X114.06 Y80.684
G1 F1200 X120.94 Y87.565 E40.27177
G0 F6000 X120.94 Y86.999
G1 F1200 X114.06 Y80.119 E40.59539
G0 F6000 X114.06 Y79.553
G1 F1200 X120.94 Y86.433 E40.919
G0 F6000 X120.94 Y85.868
G1 F1200 X114.06 Y78.987 E41.24264
G0 F6000 X114.06 Y78.422
G1 F1200 X120.94 Y85.302 E41.56625
G0 F6000 X120.94 Y84.736
G1 F1200 X114.06 Y77.856 E41.88987
G0 F6000 X114.06 Y77.29
G1 F1200 X120.94 Y84.17 E42.21348
G0 F6000 X120.94 Y83.605
G1 F1200 X114.06 Y76.725 E42.53709
G0 F6000 X114.06 Y76.159
G1 F1200 X120.94 Y83.039 E42.86071
G0 F6000 X120.94 Y82.473
G1 F1200 X114.06 Y75.593 E43.18432
G0 F6000 X114.06 Y75.028
G1 F1200 X120.94 Y81.908 E43.50794
G0 F6000 X120.94 Y81.342
G1 F1200 X114.06 Y74.462 E43.83155
G0 F6000 X114.06 Y73.896
G1 F1200 X120.94 Y80.776 E44.15516
G0 F6000 X120.94 Y80.211
G1 F1200 X114.06 Y73.331 E44.47878
G0 F6000 X114.06 Y72.765
G1 F1200 X120.94 Y79.645 E44.80239
G0 F6000 X120.94 Y79.079
G1 F1200 X114.06 Y72.199 E45.12601
G0 F6000 X114.06 Y71.633
G1 F1200 X120.94 Y78.514 E45.44964
G0 F6000 X120.94 Y77.948
G1 F1200 X114.06 Y71.068 E45.77326
G0 F6000 X114.06 Y70.502
G1 F1200 X120.94 Y77.382 E46.09687
G0 F6000 X120.94 Y76.817
G1 F1200 X114.06 Y69.936 E46.42051
G0 F6000 X114.06 Y69.371
G1 F1200 X120.94 Y76.251 E46.74412
G0 F6000 X120.94 Y75.685
G1 F1200 X114.06 Y68.805 E47.06774
G0 F6000 X114.06 Y68.239
G1 F1200 X120.94 Y75.119 E47.39135
G0 F6000 X120.94 Y74.554
G1 F1200 X114.06 Y67.674 E47.71497
G0 F6000 X114.06 Y67.108
G1 F1200 X120.94 Y73.988 E48.03858
G0 F6000 X120.94 Y73.422
G1 F1200 X114.06 Y66.542 E48.36219
G0 F6000 X114.06 Y65.977
G1 F1200 X120.94 Y72.857 E48.68581
G0 F6000 X120.94 Y72.291
G1 F1200 X114.06 Y65.411 E49.00942
G0 F6000 X114.06 Y64.845
G1 F1200 X120.94 Y71.725 E49.33304
G0 F6000 X120.94 Y71.16
G1 F1200 X114.06 Y64.28 E49.65665
G0 F6000 X114.406 Y64.06
G1 F1200 X120.94 Y70.594 E49.96399
G0 F6000 X120.94 Y70.028
G1 F1200 X114.972 Y64.06 E50.24471
G0 F6000 X115.538 Y64.06
G1 F1200 X120.94 Y69.463 E50.49882
G0 F6000 X120.94 Y68.897
G1 F1200 X116.103 Y64.06 E50.72634
G0 F6000 X116.669 Y64.06
G1 F1200 X120.94 Y68.331 E50.92724
G0 F6000 X120.94 Y67.766
G1 F1200 X117.235 Y64.06 E51.10153
G0 F6000 X117.8 Y64.06
G1 F1200 X120.94 Y67.2 E51.24923
G0 F6000 X120.94 Y66.634
G1 F1200 X118.366 Y64.06 E51.3703
G0 F6000 X118.932 Y64.06
G1 F1200 X120.94 Y66.069 E51.46477
G0 F6000 X120.94 Y65.503
G1 F1200 X119.498 Y64.06 E51.53263
G0 F6000 X120.063 Y64.06
G1 F1200 X120.94 Y64.937 E51.57388
G0 F6000 X120.94 Y64.371
G1 F1200 X120.629 Y64.06 E51.5885
G1 F4200 E44.5885
;MESH:support2.STL(3)
G0 F6000 X120.629 Y63.6
G0 X121.328 Y63.672
G0 X122.08 Y91.5
G0 X123.165 Y91.5
G0 X131.835 Y91.5
G0 X132.92 Y91.5
G0 X141.5 Y91.5
;TYPE:WALL-INNER
G1 F4200 E51.5885
G1 F1200 X141.5 Y63.5 E52.51979
G1 X133.5 Y63.5 E52.78587
G1 X133.5 Y91.5 E53.71715
G1 X140.7 Y91.5 E53.95663
G0 F1080 X141.5 Y91.5
G0 F6000 X141.9 Y91.9
G1 F1200 X141.9 Y63.1 E54.91452
G1 X133.1 Y63.1 E55.20721
G1 X133.1 Y91.9 E56.1651
G1 X141.1 Y91.9 E56.43118
G0 F1080 X141.9 Y91.9
G0 F6000 X142.3 Y92.3
;TYPE:WALL-OUTER
G1 F1200 X142.3 Y62.7 E57.41568
G1 X132.7 Y62.7 E57.73498
G1 X132.7 Y92.3 E58.71948
G1 X141.5 Y92.3 E59.01217
G0 F1080 X142.3 Y92.3
G0 F6000 X142.03 Y92.03
G0 X141.4 Y91.14
G0 X141.14 Y91.14
;TYPE:SKIN
G1 F1200 X133.86 Y91.14 E59.2543
G1 X133.86 Y63.86 E60.16164
G1 X141.14 Y63.86 E60.40377
G1 X141.14 Y90.34 E61.2845
G0 F1080 X141.14 Y91.14
